;FLAVOR:Marlin
;TIME:1984
;Filament used: 1.24595m
;Layer height: 0.2
;MINX:60.166
;MINY:67.9
;MINZ:0.4
;MAXX:126.601
;MAXY:105.943
;MAXZ:10
;Generated with Cura_SteamEngine 5.0.0-beta+1
M140 S70
M105
M190 S70
M104 S215
M105
M109 S215
M82 ;absolute extrusion mode
; Ender 3 Custom Start G-code
G92 E0 ; Reset Extruder
G28 ; Home all axes
G1 Z2.0 F3000 ; Move Z Axis up little to prevent scratching of Heat Bed
G1 X0.1 Y20 Z0.3 F5000.0 ; Move to start position
G1 X0.1 Y200.0 Z0.3 F1500.0 E15 ; Draw the first line
G1 X0.4 Y200.0 Z0.3 F5000.0 ; Move to side a little
G1 X0.4 Y20 Z0.3 F1500.0 E30 ; Draw the second line
G92 E0 ; Reset Extruder
G1 Z2.0 F3000 ; Move Z Axis up little to prevent scratching of Heat Bed
G1 X5 Y20 Z0.3 F5000.0 ; Move over to prevent blob squish
G92 E0
G92 E0
G1 F1500 E-6.5
;LAYER_COUNT:49
;LAYER:0
M107 P2
G0 F6000 X64.105 Y76.973 Z0.4
G0 X60.166 Y84.617
;TYPE:SKIRT
G1 F1500 E0
G1 F1200 X60.274 Y83.477 E0.12188
G1 X60.423 Y82.697 E0.20639
G1 X60.743 Y81.607 E0.3273
G1 X61.037 Y80.874 E0.41136
G1 X61.56 Y79.859 E0.53289
G1 X61.988 Y79.192 E0.61723
G1 X62.695 Y78.293 E0.73896
G1 X63.243 Y77.719 E0.82342
G1 X64.105 Y76.973 E0.94476
G1 X64.748 Y76.516 E1.02872
G1 X65.734 Y75.947 E1.14988
G1 X66.451 Y75.619 E1.2338
G1 X67.53 Y75.245 E1.35534
G1 X68.302 Y75.058 E1.43988
G1 X69.432 Y74.896 E1.56138
G1 X70.219 Y74.859 E1.64523
G1 X71.359 Y74.913 E1.7667
G1 X72.144 Y75.026 E1.85111
G1 X73.251 Y75.295 E1.97236
G1 X73.997 Y75.553 E2.05638
G1 X75.033 Y76.026 E2.17759
G1 X75.716 Y76.42 E2.26151
G1 X76.648 Y77.083 E2.38324
G1 X76.976 Y77.367 E2.42942
G1 X77.125 Y77.225 E2.45133
G1 X77.742 Y76.739 E2.53492
G1 X78.702 Y76.121 E2.65644
G1 X79.412 Y75.756 E2.74141
G1 X80.469 Y75.334 E2.86254
G1 X81.222 Y75.112 E2.94609
G1 X82.346 Y74.895 E3.06793
G1 X83.135 Y74.82 E3.15229
G1 X84.272 Y74.82 E3.2733
G1 X85.061 Y74.895 E3.35765
G1 X86.185 Y75.112 E3.47949
G1 X86.938 Y75.334 E3.56305
G1 X87.995 Y75.756 E3.68418
G1 X88.705 Y76.121 E3.76915
G1 X89.665 Y76.739 E3.89067
G1 X90.282 Y77.225 E3.97426
G1 X90.885 Y77.799 E4.06287
G1 X91.246 Y77.172 E4.13987
G1 X91.506 Y76.75 E4.19262
G1 X91.919 Y76.121 E4.27271
G1 X92.294 Y75.599 E4.34112
G1 X92.599 Y75.198 E4.39474
G1 X93.066 Y74.621 E4.47375
G1 X93.5 Y74.129 E4.54357
G1 X93.847 Y73.757 E4.59772
G1 X94.363 Y73.238 E4.67561
G1 X94.847 Y72.788 E4.74595
G1 X95.231 Y72.452 E4.80026
G1 X95.786 Y71.995 E4.87678
G1 X96.326 Y71.585 E4.94894
G1 X96.723 Y71.303 E5.00077
G1 X97.339 Y70.889 E5.07976
G1 X97.896 Y70.549 E5.14921
G1 X98.332 Y70.298 E5.20276
G1 X98.987 Y69.948 E5.2818
G1 X99.574 Y69.666 E5.35111
G1 X100.04 Y69.457 E5.40547
G1 X100.718 Y69.178 E5.4835
G1 X101.33 Y68.955 E5.55283
G1 X101.816 Y68.793 E5.60735
G1 X102.556 Y68.574 E5.68949
G1 X103.657 Y68.306 E5.81009
G1 X104.377 Y68.169 E5.8881
G1 X105.012 Y68.074 E5.95644
G1 X105.523 Y68.01 E6.01125
G1 X106.301 Y67.941 E6.09438
G1 X107.41 Y67.9 E6.21249
G1 X108.155 Y67.906 E6.29179
G1 X108.8 Y67.939 E6.36052
G1 X109.301 Y67.977 E6.414
G1 X110.086 Y68.063 E6.49805
G1 X111.183 Y68.243 E6.61637
G1 X111.721 Y68.353 E6.67481
G1 X112.855 Y68.647 E6.7995
G1 X113.544 Y68.856 E6.87613
G1 X113.772 Y68.934 E6.90178
G1 X114.808 Y69.326 E7.01967
G1 X115.536 Y69.641 E7.10409
G1 X116.527 Y70.135 E7.22195
G1 X117.212 Y70.517 E7.30542
G1 X118.161 Y71.114 E7.42475
G1 X118.759 Y71.529 E7.50222
G1 X119.287 Y71.929 E7.57273
G1 X119.672 Y72.238 E7.62527
G1 X120.241 Y72.722 E7.70477
G1 X120.721 Y73.168 E7.77451
G1 X121.077 Y73.517 E7.82757
G1 X121.59 Y74.052 E7.90646
G1 X122.02 Y74.539 E7.9756
G1 X122.347 Y74.929 E8.02977
G1 X122.806 Y75.515 E8.109
G1 X123.182 Y76.04 E8.17773
G1 X123.467 Y76.459 E8.23166
G1 X123.865 Y77.086 E8.3107
G1 X124.188 Y77.647 E8.3796
G1 X124.434 Y78.1 E8.43447
G1 X124.761 Y78.754 E8.51229
G1 X125.029 Y79.347 E8.58155
G1 X125.225 Y79.815 E8.63555
G1 X125.505 Y80.551 E8.71936
G1 X125.845 Y81.607 E8.83744
G1 X126.049 Y82.362 E8.92068
G1 X126.285 Y83.454 E9.03958
G1 X126.408 Y84.189 E9.1189
G1 X126.487 Y84.83 E9.18764
G1 X126.536 Y85.331 E9.24122
G1 X126.586 Y86.075 E9.32058
G1 X126.601 Y86.717 E9.38893
G1 X126.6 Y87.228 E9.44331
G1 X126.573 Y88.009 E9.52649
G1 X126.476 Y89.119 E9.64508
G1 X126.37 Y89.897 E9.72865
G1 X126.162 Y90.994 E9.84748
G1 X125.979 Y91.753 E9.93058
G1 X125.666 Y92.815 E10.04842
G1 X125.424 Y93.519 E10.12765
G1 X125.183 Y94.132 E10.19776
G1 X124.987 Y94.592 E10.25097
G1 X124.659 Y95.299 E10.33392
G1 X124.138 Y96.287 E10.4528
G1 X123.739 Y96.962 E10.53626
G1 X123.125 Y97.887 E10.65442
G1 X122.69 Y98.482 E10.73287
G1 X122.273 Y99.005 E10.80406
G1 X121.955 Y99.381 E10.85647
G1 X121.456 Y99.937 E10.93599
G1 X120.999 Y100.405 E11.00561
G1 X120.645 Y100.748 E11.05807
G1 X120.096 Y101.249 E11.13718
G1 X119.592 Y101.673 E11.20727
G1 X119.198 Y101.985 E11.26076
G1 X118.603 Y102.427 E11.33965
G1 X118.071 Y102.789 E11.40814
G1 X117.643 Y103.065 E11.46234
G1 X116.972 Y103.466 E11.54554
G1 X115.988 Y103.986 E11.664
G1 X115.274 Y104.321 E11.74794
G1 X114.252 Y104.737 E11.86538
G1 X113.532 Y104.992 E11.94667
G1 X112.918 Y105.179 E12.01499
G1 X112.438 Y105.313 E12.06803
G1 X111.723 Y105.489 E12.1464
G1 X111.084 Y105.619 E12.2158
G1 X110.585 Y105.706 E12.26971
G1 X109.803 Y105.816 E12.35376
G1 X108.695 Y105.912 E12.47213
G1 X107.949 Y105.943 E12.5516
G1 X107.306 Y105.942 E12.62003
G1 X106.804 Y105.929 E12.67348
G1 X106.061 Y105.886 E12.75269
G1 X105.417 Y105.821 E12.82158
G1 X104.91 Y105.757 E12.87597
G1 X104.183 Y105.641 E12.95433
G1 X103.554 Y105.514 E13.02262
G1 X103.039 Y105.396 E13.07886
G1 X102.332 Y105.209 E13.15669
G1 X101.714 Y105.018 E13.22554
G1 X101.233 Y104.855 E13.27959
G1 X100.535 Y104.595 E13.35887
G1 X99.936 Y104.341 E13.42812
G1 X99.481 Y104.135 E13.48127
G1 X98.987 Y103.896 E13.53968
G1 X97.958 Y103.33 E13.66468
G1 X97.334 Y102.951 E13.74238
G1 X96.637 Y102.482 E13.83179
G1 X96.228 Y102.187 E13.88547
G1 X95.647 Y101.74 E13.96349
G1 X95.132 Y101.308 E14.03503
G1 X94.772 Y100.987 E14.08637
G1 X94.223 Y100.471 E14.16656
G1 X93.775 Y100.011 E14.2349
G1 X93.421 Y99.628 E14.29041
G1 X92.949 Y99.082 E14.36722
G1 X92.526 Y98.553 E14.43931
G1 X92.234 Y98.164 E14.49108
G1 X91.81 Y97.564 E14.56927
G1 X91.451 Y97.009 E14.63963
G1 X91.187 Y96.574 E14.69378
G1 X90.827 Y95.938 E14.77157
G1 X90.528 Y95.354 E14.8414
G1 X90.31 Y94.898 E14.89519
G1 X90.013 Y94.226 E14.97339
G1 X89.77 Y93.609 E15.04396
G1 X89.619 Y93.192 E15.09117
G1 X89.52 Y93.27 E15.10458
G1 X88.859 Y93.695 E15.18822
G1 X87.843 Y94.22 E15.30994
G1 X87.102 Y94.516 E15.39486
G1 X86.009 Y94.836 E15.51608
G1 X85.234 Y94.985 E15.60007
G1 X84.098 Y95.093 E15.72153
G1 X83.311 Y95.093 E15.80529
G1 X82.174 Y94.985 E15.92685
G1 X81.397 Y94.836 E16.01105
G1 X80.305 Y94.516 E16.13216
G1 X79.567 Y94.221 E16.21675
G1 X78.55 Y93.696 E16.33857
G1 X77.887 Y93.27 E16.42244
G1 X77.032 Y92.598 E16.53819
G1 X76.653 Y92.927 E16.5916
G1 X75.722 Y93.591 E16.71331
G1 X75.032 Y93.989 E16.79809
G1 X73.995 Y94.462 E16.9194
G1 X73.251 Y94.719 E17.00318
G1 X72.144 Y94.988 E17.12443
G1 X71.359 Y95.101 E17.20884
G1 X70.219 Y95.155 E17.33031
G1 X69.432 Y95.118 E17.41416
G1 X68.302 Y94.956 E17.53566
G1 X67.53 Y94.769 E17.6202
G1 X66.451 Y94.395 E17.74174
G1 X65.733 Y94.066 E17.8258
G1 X64.746 Y93.496 E17.94711
G1 X64.104 Y93.04 E18.03092
G1 X63.242 Y92.294 E18.15225
G1 X62.694 Y91.719 E18.23679
G1 X61.988 Y90.821 E18.35837
G1 X61.56 Y90.155 E18.44263
G1 X61.037 Y89.14 E18.56416
G1 X60.743 Y88.405 E18.64841
G1 X60.423 Y87.313 E18.76952
G1 X60.274 Y86.537 E18.85362
G1 X60.166 Y85.403 E18.97486
G1 X60.166 Y84.617 E19.05852
G0 F6000 X60.803 Y84.677
G1 F1200 X60.911 Y83.537 E19.1804
G1 X61.038 Y82.877 E19.25193
G1 X61.358 Y81.787 E19.37284
G1 X61.606 Y81.167 E19.44391
G1 X62.129 Y80.152 E19.56544
G1 X62.491 Y79.588 E19.63677
G1 X63.198 Y78.689 E19.75849
G1 X63.662 Y78.203 E19.83001
G1 X64.524 Y77.457 E19.95134
G1 X65.068 Y77.07 E20.02239
G1 X66.054 Y76.501 E20.14356
G1 X66.66 Y76.224 E20.21447
G1 X67.739 Y75.85 E20.33602
G1 X68.392 Y75.692 E20.40752
G1 X69.522 Y75.53 E20.52902
G1 X70.189 Y75.498 E20.60009
G1 X71.329 Y75.552 E20.72156
G1 X71.993 Y75.648 E20.79297
G1 X73.1 Y75.917 E20.91422
G1 X73.731 Y76.135 E20.98527
G1 X74.767 Y76.608 E21.10648
G1 X75.345 Y76.942 E21.17753
G1 X76.277 Y77.605 E21.29927
G1 X76.786 Y78.045 E21.37088
G1 X76.979 Y78.247 E21.40061
G1 X77.566 Y77.688 E21.48689
G1 X78.089 Y77.277 E21.55768
G1 X79.049 Y76.659 E21.6792
G1 X79.649 Y76.35 E21.75103
G1 X80.706 Y75.928 E21.87216
G1 X81.344 Y75.741 E21.94292
G1 X82.468 Y75.524 E22.06476
G1 X83.135 Y75.46 E22.13608
G1 X84.272 Y75.46 E22.25709
G1 X84.939 Y75.524 E22.32841
G1 X86.063 Y75.741 E22.45025
G1 X86.701 Y75.928 E22.52101
G1 X87.758 Y76.35 E22.64214
G1 X88.358 Y76.659 E22.71397
G1 X89.318 Y77.277 E22.83549
G1 X89.841 Y77.688 E22.90628
G1 X90.665 Y78.473 E23.02741
G1 X91.04 Y78.906 E23.08838
G1 X91.144 Y78.687 E23.11418
G1 X91.475 Y78.054 E23.19021
G1 X91.793 Y77.505 E23.25773
G1 X92.043 Y77.097 E23.30866
G1 X92.438 Y76.494 E23.38538
G1 X92.805 Y75.985 E23.45217
G1 X93.099 Y75.598 E23.5039
G1 X93.547 Y75.044 E23.57973
G1 X93.97 Y74.564 E23.64782
G1 X94.304 Y74.206 E23.69993
G1 X94.799 Y73.706 E23.77482
G1 X95.27 Y73.268 E23.84327
G1 X95.64 Y72.944 E23.89562
G1 X96.174 Y72.504 E23.96926
G1 X96.698 Y72.106 E24.03929
G1 X97.082 Y71.832 E24.0895
G1 X97.674 Y71.435 E24.16536
G1 X98.217 Y71.103 E24.2331
G1 X98.638 Y70.861 E24.28479
G1 X99.266 Y70.524 E24.36064
G1 X99.838 Y70.249 E24.42819
G1 X100.287 Y70.047 E24.48059
G1 X100.938 Y69.779 E24.55552
G1 X101.535 Y69.561 E24.62317
G1 X102.003 Y69.405 E24.67567
G1 X102.709 Y69.195 E24.75407
G1 X103.781 Y68.934 E24.8715
G1 X104.472 Y68.802 E24.94637
G1 X105.093 Y68.709 E25.0132
G1 X105.584 Y68.647 E25.06588
G1 X106.327 Y68.581 E25.14527
G1 X107.408 Y68.54 E25.2604
G1 X108.123 Y68.545 E25.3365
G1 X108.753 Y68.577 E25.40364
G1 X109.237 Y68.614 E25.45531
G1 X109.984 Y68.695 E25.53528
G1 X111.055 Y68.87 E25.65078
G1 X111.79 Y69.026 E25.73075
G1 X112.832 Y69.306 E25.84558
G1 X113.547 Y69.534 E25.92546
G1 X114.559 Y69.916 E26.04059
G1 X115.252 Y70.215 E26.12092
G1 X116.22 Y70.697 E26.23601
G1 X116.873 Y71.06 E26.31553
G1 X117.799 Y71.641 E26.43188
G1 X118.374 Y72.041 E26.50643
G1 X118.888 Y72.43 E26.57503
G1 X119.26 Y72.728 E26.62576
G1 X119.806 Y73.192 E26.70202
G1 X120.274 Y73.626 E26.76996
G1 X120.618 Y73.964 E26.82129
G1 X121.111 Y74.476 E26.89693
G1 X121.531 Y74.951 E26.96442
G1 X121.845 Y75.327 E27.01656
G1 X122.286 Y75.889 E27.09259
G1 X122.654 Y76.401 E27.1597
G1 X122.929 Y76.806 E27.2118
G1 X123.311 Y77.407 E27.28759
G1 X123.627 Y77.954 E27.35483
G1 X123.863 Y78.39 E27.4076
G1 X124.178 Y79.018 E27.48237
G1 X124.44 Y79.596 E27.54991
G1 X124.629 Y80.047 E27.60196
G1 X124.897 Y80.749 E27.68194
G1 X125.228 Y81.779 E27.79708
G1 X125.424 Y82.5 E27.87661
G1 X125.654 Y83.563 E27.99236
G1 X125.773 Y84.269 E28.06856
G1 X125.85 Y84.894 E28.13559
G1 X125.898 Y85.377 E28.18725
G1 X125.946 Y86.091 E28.26341
G1 X125.961 Y86.719 E28.33027
G1 X125.961 Y87.21 E28.38253
G1 X125.935 Y87.956 E28.46197
G1 X125.841 Y89.039 E28.57767
G1 X125.741 Y89.78 E28.65725
G1 X125.538 Y90.85 E28.77317
G1 X125.365 Y91.574 E28.85239
G1 X125.059 Y92.611 E28.96747
G1 X124.828 Y93.286 E29.0434
G1 X124.593 Y93.884 E29.11179
G1 X124.404 Y94.328 E29.16315
G1 X124.092 Y95.002 E29.2422
G1 X123.585 Y95.965 E29.35803
G1 X123.204 Y96.61 E29.43776
G1 X122.606 Y97.512 E29.55294
G1 X122.189 Y98.084 E29.62828
G1 X121.784 Y98.593 E29.69751
G1 X121.476 Y98.957 E29.74826
G1 X120.998 Y99.491 E29.82454
G1 X120.552 Y99.947 E29.89243
G1 X120.21 Y100.278 E29.94308
G1 X119.684 Y100.76 E30.01902
G1 X119.193 Y101.172 E30.08724
G1 X118.813 Y101.473 E30.13883
G1 X118.242 Y101.899 E30.21465
G1 X117.723 Y102.252 E30.28146
G1 X117.31 Y102.519 E30.3338
G1 X116.67 Y102.901 E30.41313
G1 X115.712 Y103.409 E30.52854
G1 X115.031 Y103.728 E30.60858
G1 X114.033 Y104.135 E30.72329
G1 X113.345 Y104.38 E30.80102
G1 X112.745 Y104.563 E30.86778
G1 X112.281 Y104.693 E30.91907
G1 X111.594 Y104.862 E30.99437
G1 X110.971 Y104.989 E31.06204
G1 X110.49 Y105.073 E31.11401
G1 X109.745 Y105.179 E31.1941
G1 X108.665 Y105.273 E31.30948
G1 X107.949 Y105.303 E31.38575
G1 X107.321 Y105.302 E31.45259
G1 X106.837 Y105.289 E31.50413
G1 X106.124 Y105.249 E31.58013
G1 X105.495 Y105.186 E31.64741
G1 X105.007 Y105.124 E31.69977
G1 X104.308 Y105.013 E31.7751
G1 X103.694 Y104.889 E31.84177
G1 X103.2 Y104.777 E31.89568
G1 X102.52 Y104.597 E31.97054
G1 X101.917 Y104.41 E32.03774
G1 X101.453 Y104.254 E32.08984
G1 X100.783 Y104.005 E32.16591
G1 X100.199 Y103.758 E32.2334
G1 X99.76 Y103.559 E32.2847
G1 X99.086 Y103.226 E32.36472
G1 X98.136 Y102.693 E32.48065
G1 X97.544 Y102.325 E32.55484
G1 X97.01 Y101.962 E32.62357
G1 X96.615 Y101.677 E32.67541
G1 X96.057 Y101.248 E32.75032
G1 X95.557 Y100.828 E32.81982
G1 X95.208 Y100.518 E32.8695
G1 X94.681 Y100.024 E32.94638
G1 X94.243 Y99.574 E33.01322
G1 X93.903 Y99.207 E33.06646
G1 X93.448 Y98.681 E33.14049
G1 X93.037 Y98.168 E33.21045
G1 X92.755 Y97.791 E33.26056
G1 X92.347 Y97.215 E33.33568
G1 X91.997 Y96.675 E33.40417
G1 X91.742 Y96.256 E33.45638
G1 X91.396 Y95.645 E33.53111
G1 X91.104 Y95.075 E33.59927
G1 X90.894 Y94.637 E33.65097
G1 X90.608 Y93.99 E33.72626
G1 X90.372 Y93.39 E33.79488
G1 X90.209 Y92.939 E33.84592
G1 X89.986 Y92.256 E33.92239
G1 X89.948 Y92.12 E33.93742
G1 X89.124 Y92.767 E34.04893
G1 X88.565 Y93.126 E34.11964
G1 X87.549 Y93.651 E34.24136
G1 X86.922 Y93.902 E34.31324
G1 X85.829 Y94.222 E34.43445
G1 X85.173 Y94.348 E34.50555
G1 X84.037 Y94.456 E34.627
G1 X83.371 Y94.456 E34.69788
G1 X82.234 Y94.348 E34.81944
G1 X81.577 Y94.222 E34.89064
G1 X80.485 Y93.902 E35.01175
G1 X79.86 Y93.652 E35.0834
G1 X78.843 Y93.127 E35.20521
G1 X78.283 Y92.767 E35.27607
G1 X77.386 Y92.062 E35.3975
G1 X77.025 Y91.717 E35.45064
G1 X76.784 Y91.97 E35.48783
G1 X76.281 Y92.406 E35.55868
G1 X75.35 Y93.07 E35.68039
G1 X74.767 Y93.407 E35.75206
G1 X73.73 Y93.88 E35.87337
G1 X73.1 Y94.097 E35.94429
G1 X71.993 Y94.366 E36.06554
G1 X71.329 Y94.462 E36.13694
G1 X70.189 Y94.516 E36.25841
G1 X69.522 Y94.484 E36.32948
G1 X68.392 Y94.322 E36.45098
G1 X67.739 Y94.164 E36.52249
G1 X66.66 Y93.79 E36.64403
G1 X66.053 Y93.512 E36.71509
G1 X65.066 Y92.942 E36.8364
G1 X64.523 Y92.556 E36.9073
G1 X63.661 Y91.81 E37.02864
G1 X63.197 Y91.324 E37.10015
G1 X62.491 Y90.426 E37.22173
G1 X62.129 Y89.862 E37.29306
G1 X61.606 Y88.847 E37.41458
G1 X61.357 Y88.225 E37.48589
G1 X61.037 Y87.133 E37.607
G1 X60.911 Y86.477 E37.6781
G1 X60.803 Y85.343 E37.79934
G1 X60.803 Y84.677 E37.87022
G0 F6000 X61.44 Y84.737
G1 F1200 X61.548 Y83.597 E37.9921
G1 X61.652 Y83.058 E38.05053
G1 X61.972 Y81.968 E38.17143
G1 X62.175 Y81.46 E38.22966
G1 X62.698 Y80.445 E38.35118
G1 X62.994 Y79.984 E38.40949
G1 X63.701 Y79.085 E38.53122
G1 X64.08 Y78.687 E38.58971
G1 X64.942 Y77.941 E38.71104
G1 X65.388 Y77.625 E38.76922
G1 X66.374 Y77.056 E38.89038
G1 X66.87 Y76.829 E38.94844
G1 X67.949 Y76.455 E39.06998
G1 X68.483 Y76.325 E39.12848
G1 X69.613 Y76.163 E39.24998
G1 X70.158 Y76.137 E39.30805
G1 X71.298 Y76.191 E39.42952
G1 X71.842 Y76.269 E39.48801
G1 X72.949 Y76.538 E39.60926
G1 X73.465 Y76.717 E39.66739
G1 X74.501 Y77.19 E39.7886
G1 X74.974 Y77.463 E39.84673
G1 X75.906 Y78.126 E39.96846
G1 X76.322 Y78.486 E40.02701
G1 X76.977 Y79.174 E40.12812
G1 X77.183 Y78.937 E40.16154
G1 X78.007 Y78.152 E40.28267
G1 X78.435 Y77.815 E40.34064
G1 X79.395 Y77.197 E40.46216
G1 X79.886 Y76.944 E40.52095
G1 X80.943 Y76.522 E40.64208
G1 X81.465 Y76.369 E40.69998
G1 X82.589 Y76.152 E40.82182
G1 X83.135 Y76.1 E40.88019
G1 X84.272 Y76.1 E41.0012
G1 X84.818 Y76.152 E41.05958
G1 X85.942 Y76.369 E41.18142
G1 X86.464 Y76.522 E41.23931
G1 X87.521 Y76.944 E41.36045
G1 X88.012 Y77.197 E41.41924
G1 X88.972 Y77.815 E41.54075
G1 X89.4 Y78.152 E41.59873
G1 X90.224 Y78.937 E41.71986
G1 X90.583 Y79.351 E41.77818
G1 X91.169 Y80.173 E41.88562
G1 X91.267 Y79.94 E41.91253
G1 X91.713 Y78.981 E42.02509
G1 X92.029 Y78.374 E42.09793
G1 X92.339 Y77.839 E42.16374
G1 X92.58 Y77.445 E42.21289
G1 X92.958 Y76.868 E42.28631
G1 X93.316 Y76.37 E42.35159
G1 X93.599 Y75.997 E42.40142
G1 X94.027 Y75.466 E42.47401
