;FLAVOR:Marlin
;TIME:1069
;Filament used: 0.950813m
;Layer height: 0.2
;MINX:57.778
;MINY:34.941
;MINZ:0.4
;MAXX:139.607
;MAXY:78.392
;MAXZ:8
;Generated with Cura_SteamEngine 5.0.0-beta+1
M140 S70
M105
M190 S70
M104 S215
M105
M109 S215
M82 ;absolute extrusion mode
; Ender 3 Custom Start G-code
G92 E0 ; Reset Extruder
G28 ; Home all axes
G1 Z2.0 F3000 ; Move Z Axis up little to prevent scratching of Heat Bed
G1 X0.1 Y20 Z0.3 F5000.0 ; Move to start position
G1 X0.1 Y200.0 Z0.3 F1500.0 E15 ; Draw the first line
G1 X0.4 Y200.0 Z0.3 F5000.0 ; Move to side a little
G1 X0.4 Y20 Z0.3 F1500.0 E30 ; Draw the second line
G92 E0 ; Reset Extruder
G1 Z2.0 F3000 ; Move Z Axis up little to prevent scratching of Heat Bed
G1 X5 Y20 Z0.3 F5000.0 ; Move over to prevent blob squish
G92 E0
G92 E0
G1 F1500 E-6.5
;LAYER_COUNT:39
;LAYER:0
M107 P2
G0 F6000 X60.701 Y50.112 Z0.4
G0 X57.778 Y58.244
;TYPE:SKIRT
G1 F1500 E0
G1 F1200 X57.812 Y57.572 E0.07161
G1 X57.897 Y56.649 E0.17027
G1 X58.01 Y55.858 E0.25531
G1 X58.168 Y55.196 E0.32775
G1 X58.419 Y54.313 E0.42545
G1 X58.676 Y53.555 E0.51064
G1 X58.955 Y52.929 E0.58358
G1 X59.369 Y52.099 E0.6823
G1 X59.761 Y51.402 E0.76741
G1 X60.145 Y50.848 E0.83915
G1 X60.701 Y50.112 E0.93733
G1 X61.214 Y49.499 E1.0224
G1 X61.699 Y49.018 E1.0951
G1 X62.379 Y48.399 E1.19297
G1 X62.996 Y47.891 E1.27804
G1 X63.547 Y47.517 E1.34891
G1 X64.332 Y47.03 E1.44723
G1 X65.031 Y46.643 E1.53227
G1 X65.668 Y46.365 E1.60625
G1 X66.528 Y46.033 E1.70436
G1 X67.287 Y45.782 E1.78945
G1 X67.938 Y45.632 E1.86055
G1 X68.847 Y45.462 E1.95897
G1 X69.64 Y45.355 E2.04414
G1 X70.36 Y45.326 E2.12083
G1 X71.309 Y45.331 E2.22184
G1 X72.108 Y45.375 E2.30701
G1 X72.741 Y45.468 E2.3751
G1 X73.621 Y45.633 E2.47039
G1 X74.399 Y45.82 E2.55556
G1 X75.028 Y46.033 E2.62624
G1 X75.888 Y46.365 E2.72435
G1 X76.619 Y46.69 E2.8095
G1 X77.224 Y47.03 E2.88336
G1 X78.009 Y47.517 E2.98168
G1 X78.667 Y47.972 E3.06683
G1 X79.177 Y48.399 E3.13762
G1 X79.695 Y48.87 E3.21214
G1 X80.107 Y48.495 E3.27143
G1 X80.724 Y47.987 E3.35649
G1 X81.275 Y47.613 E3.42737
G1 X82.06 Y47.126 E3.52569
G1 X82.759 Y46.739 E3.61073
G1 X83.396 Y46.461 E3.6847
G1 X84.256 Y46.129 E3.78282
G1 X85.015 Y45.878 E3.8679
G1 X85.668 Y45.728 E3.93921
G1 X86.578 Y45.558 E4.03774
G1 X87.37 Y45.451 E4.1228
G1 X88.089 Y45.422 E4.19939
G1 X89.037 Y45.427 E4.30029
G1 X89.836 Y45.471 E4.38546
G1 X90.469 Y45.564 E4.45355
G1 X91.349 Y45.729 E4.54885
G1 X92.127 Y45.916 E4.63401
G1 X92.756 Y46.129 E4.70469
G1 X93.616 Y46.461 E4.80281
G1 X94.347 Y46.786 E4.88795
G1 X94.952 Y47.126 E4.96181
G1 X95.737 Y47.613 E5.06014
G1 X96.395 Y48.068 E5.14528
G1 X96.905 Y48.495 E5.21607
G1 X97.539 Y49.072 E5.30731
G1 X97.802 Y48.403 E5.38382
G1 X98.56 Y46.78 E5.57447
G1 X98.758 Y46.384 E5.62159
G1 X99.053 Y45.834 E5.68802
G1 X99.551 Y45.025 E5.78913
G1 X100.576 Y43.562 E5.97925
G1 X100.87 Y43.169 E6.03149
G1 X101.257 Y42.683 E6.09761
G1 X101.856 Y42.011 E6.19343
G1 X103.12 Y40.746 E6.38376
G1 X103.519 Y40.373 E6.44189
G1 X103.99 Y39.962 E6.50842
G1 X104.662 Y39.437 E6.59918
G1 X106.126 Y38.412 E6.78939
G1 X106.611 Y38.097 E6.85095
G1 X107.145 Y37.778 E6.91715
G1 X107.874 Y37.392 E7.00494
G1 X109.495 Y36.638 E7.19522
G1 X110.038 Y36.41 E7.2579
G1 X110.622 Y36.189 E7.32436
G1 X111.386 Y35.943 E7.40979
G1 X113.113 Y35.481 E7.60006
G1 X113.742 Y35.339 E7.66869
G1 X114.355 Y35.227 E7.73501
G1 X115.1 Y35.127 E7.81502
G1 X116.883 Y34.972 E8.0055
G1 X117.563 Y34.942 E8.07795
G1 X118.183 Y34.941 E8.14393
G1 X118.898 Y34.972 E8.2201
G1 X120.681 Y35.129 E8.41061
G1 X121.38 Y35.222 E8.48566
G1 X121.993 Y35.331 E8.55193
G1 X122.672 Y35.482 E8.62596
G1 X124.399 Y35.947 E8.81631
G1 X125.128 Y36.181 E8.8978
G1 X125.712 Y36.4 E8.96419
G1 X126.282 Y36.64 E9.03001
G1 X127.902 Y37.395 E9.22024
G1 X128.605 Y37.766 E9.30484
G1 X129.141 Y38.084 E9.37117
G1 X129.655 Y38.416 E9.4363
G1 X131.118 Y39.443 E9.62654
G1 X131.766 Y39.95 E9.71411
G1 X132.236 Y40.358 E9.78035
G1 X132.656 Y40.749 E9.84143
G1 X133.919 Y42.015 E10.03176
G1 X134.501 Y42.666 E10.1247
G1 X134.89 Y43.152 E10.19095
G1 X135.197 Y43.563 E10.24555
G1 X136.222 Y45.027 E10.43577
G1 X136.703 Y45.804 E10.53303
G1 X137.001 Y46.354 E10.5996
G1 X137.22 Y46.789 E10.65144
G1 X137.974 Y48.409 E10.84162
G1 X138.326 Y49.302 E10.94378
G1 X138.519 Y49.893 E11.00995
G1 X138.643 Y50.31 E11.05626
G1 X139.105 Y52.038 E11.24663
G1 X139.301 Y53.014 E11.35258
G1 X139.386 Y53.632 E11.41898
G1 X139.431 Y54.033 E11.46192
G1 X139.585 Y55.814 E11.65219
G1 X139.607 Y56.85 E11.76248
G1 X139.558 Y57.823 E11.86617
G1 X139.402 Y59.605 E12.05655
G1 X139.236 Y60.666 E12.17085
G1 X139.02 Y61.594 E12.27226
G1 X138.555 Y63.322 E12.46272
G1 X138.193 Y64.371 E12.58083
G1 X137.836 Y65.2 E12.6769
G1 X137.08 Y66.819 E12.86707
G1 X136.513 Y67.833 E12.99072
G1 X136.04 Y68.546 E13.08179
G1 X135.012 Y70.013 E13.27244
G1 X134.52 Y70.644 E13.3576
G1 X134.244 Y70.948 E13.4013
G1 X133.687 Y71.529 E13.48697
G1 X132.422 Y72.793 E13.6773
G1 X131.828 Y73.329 E13.76245
G1 X131.482 Y73.597 E13.80903
G1 X130.848 Y74.057 E13.8924
G1 X129.382 Y75.082 E14.08279
G1 X128.705 Y75.507 E14.16786
G1 X128.283 Y75.727 E14.21851
G1 X127.616 Y76.049 E14.29734
G1 X125.991 Y76.806 E14.48814
G1 X125.25 Y77.107 E14.57327
G1 X124.701 Y77.277 E14.63444
G1 X122.378 Y77.905 E14.89055
G1 X121.596 Y78.075 E14.97573
G1 X120.99 Y78.151 E15.04073
G1 X118.587 Y78.362 E15.29747
G1 X117.788 Y78.392 E15.38257
G1 X117.191 Y78.363 E15.44619
G1 X114.786 Y78.153 E15.70313
G1 X113.994 Y78.043 E15.78824
G1 X113.396 Y77.906 E15.85353
G1 X111.071 Y77.278 E16.10985
G1 X110.31 Y77.031 E16.19501
G1 X109.772 Y76.804 E16.25716
G1 X108.066 Y76.006 E16.45761
G1 X107.503 Y75.735 E16.52412
G1 X106.801 Y75.353 E16.60918
G1 X106.383 Y75.079 E16.66237
G1 X104.812 Y73.977 E16.86661
G1 X104.309 Y73.612 E16.93276
G1 X103.686 Y73.11 E17.01791
G1 X103.348 Y72.792 E17.06731
G1 X101.965 Y71.405 E17.27577
G1 X101.533 Y70.954 E17.34224
G1 X101.009 Y70.349 E17.42743
G1 X100.754 Y70.005 E17.473
G1 X99.618 Y68.376 E17.68438
G1 X99.274 Y67.857 E17.75065
G1 X98.69 Y66.815 E17.87778
G1 X98.585 Y66.59 E17.90421
G1 X98.074 Y67.202 E17.98906
G1 X97.582 Y67.69 E18.06282
G1 X96.901 Y68.309 E18.16077
G1 X96.283 Y68.817 E18.24591
G1 X95.737 Y69.187 E18.31611
G1 X94.952 Y69.674 E18.41443
G1 X94.253 Y70.061 E18.49947
G1 X93.616 Y70.339 E18.57344
G1 X92.756 Y70.671 E18.67156
G1 X91.997 Y70.922 E18.75664
G1 X91.307 Y71.079 E18.83196
G1 X90.367 Y71.25 E18.93365
G1 X89.574 Y71.353 E19.01876
G1 X88.935 Y71.379 E19.08682
G1 X88.047 Y71.379 E19.18133
G1 X87.248 Y71.339 E19.26648
G1 X86.57 Y71.241 E19.33939
G1 X85.66 Y71.07 E19.43794
G1 X84.882 Y70.884 E19.52308
G1 X84.256 Y70.671 E19.59346
G1 X83.396 Y70.339 E19.69157
G1 X82.665 Y70.014 E19.77672
G1 X82.06 Y69.674 E19.85058
G1 X81.275 Y69.187 E19.9489
G1 X80.617 Y68.732 E20.03405
G1 X80.111 Y68.309 E20.10424
G1 X79.589 Y67.835 E20.17929
G1 X79.173 Y68.213 E20.23911
G1 X78.555 Y68.721 E20.32426
G1 X78.009 Y69.091 E20.39445
G1 X77.224 Y69.578 E20.49278
G1 X76.525 Y69.965 E20.57781
G1 X75.888 Y70.243 E20.65179
G1 X75.028 Y70.575 E20.7499
G1 X74.269 Y70.826 E20.83499
G1 X73.577 Y70.983 E20.91051
G1 X72.636 Y71.154 E21.0123
G1 X71.843 Y71.258 E21.09743
G1 X71.206 Y71.283 E21.16528
G1 X70.318 Y71.283 E21.25979
G1 X69.519 Y71.243 E21.34493
G1 X68.839 Y71.145 E21.41806
G1 X67.93 Y70.974 E21.5165
G1 X67.152 Y70.787 E21.60166
G1 X66.528 Y70.575 E21.6718
G1 X65.668 Y70.243 E21.76992
G1 X64.937 Y69.918 E21.85507
G1 X64.332 Y69.578 E21.92893
G1 X63.547 Y69.091 E22.02725
G1 X62.889 Y68.636 E22.1124
G1 X62.383 Y68.213 E22.18259
G1 X61.702 Y67.594 E22.28054
G1 X61.138 Y67.027 E22.36566
G1 X60.697 Y66.492 E22.43945
G1 X60.141 Y65.755 E22.53771
G1 X59.691 Y65.093 E22.6229
G1 X59.366 Y64.504 E22.6945
G1 X58.953 Y63.675 E22.79308
G1 X58.633 Y62.943 E22.8781
G1 X58.419 Y62.295 E22.95074
G1 X58.168 Y61.412 E23.04844
G1 X57.988 Y60.633 E23.13354
G1 X57.897 Y59.962 E23.20561
G1 X57.812 Y59.043 E23.30383
G1 X57.778 Y58.244 E23.38895
G0 F6000 X58.419 Y58.217
G1 F1200 X58.449 Y57.631 E23.4514
G1 X58.534 Y56.708 E23.55005
G1 X58.644 Y55.949 E23.63168
G1 X58.783 Y55.371 E23.69495
G1 X59.034 Y54.488 E23.79266
G1 X59.282 Y53.762 E23.87431
G1 X59.528 Y53.215 E23.93814
G1 X59.942 Y52.385 E24.03686
G1 X60.32 Y51.717 E24.11855
G1 X60.655 Y51.234 E24.18111
G1 X61.211 Y50.498 E24.27929
G1 X61.705 Y49.91 E24.36103
G1 X62.13 Y49.491 E24.42455
G1 X62.81 Y48.872 E24.52241
G1 X63.403 Y48.386 E24.60402
G1 X63.884 Y48.061 E24.6658
G1 X64.669 Y47.574 E24.76412
G1 X65.341 Y47.204 E24.84577
G1 X65.898 Y46.962 E24.91041
G1 X66.758 Y46.63 E25.00852
G1 X67.487 Y46.391 E25.09018
G1 X68.056 Y46.261 E25.1523
G1 X68.965 Y46.091 E25.25072
G1 X69.725 Y45.99 E25.33232
G1 X70.357 Y45.966 E25.39963
G1 X71.306 Y45.971 E25.50064
G1 X72.072 Y46.015 E25.5823
G1 X72.623 Y46.097 E25.64159
G1 X73.503 Y46.262 E25.73688
G1 X74.249 Y46.443 E25.81859
G1 X74.798 Y46.63 E25.88031
G1 X75.658 Y46.962 E25.97843
G1 X76.358 Y47.275 E26.06004
G1 X76.887 Y47.574 E26.12472
G1 X77.672 Y48.061 E26.22304
G1 X78.302 Y48.499 E26.3047
G1 X78.746 Y48.872 E26.36642
G1 X79.426 Y49.491 E26.46429
G1 X79.687 Y49.755 E26.5038
G1 X79.858 Y49.587 E26.52932
G1 X80.538 Y48.968 E26.62719
G1 X81.131 Y48.482 E26.70879
G1 X81.612 Y48.157 E26.77057
G1 X82.397 Y47.67 E26.86889
G1 X83.069 Y47.3 E26.95054
G1 X83.626 Y47.058 E27.01518
G1 X84.486 Y46.726 E27.11329
G1 X85.215 Y46.487 E27.19495
G1 X85.785 Y46.357 E27.25717
G1 X86.695 Y46.187 E27.3557
G1 X87.456 Y46.086 E27.4374
G1 X88.086 Y46.062 E27.50451
G1 X89.034 Y46.067 E27.60541
G1 X89.8 Y46.111 E27.68707
G1 X90.351 Y46.193 E27.74636
G1 X91.231 Y46.358 E27.84165
G1 X91.977 Y46.539 E27.92335
G1 X92.526 Y46.726 E27.98508
G1 X93.386 Y47.058 E28.0832
G1 X94.086 Y47.371 E28.16481
G1 X94.615 Y47.67 E28.22948
G1 X95.4 Y48.157 E28.3278
G1 X96.03 Y48.595 E28.40947
G1 X96.474 Y48.968 E28.47119
G1 X97.154 Y49.587 E28.56906
G1 X97.694 Y50.133 E28.65079
G1 X97.809 Y50.273 E28.67007
G1 X98.045 Y49.528 E28.75325
G1 X98.381 Y48.674 E28.85092
G1 X99.139 Y47.051 E29.04157
G1 X99.322 Y46.686 E29.08503
G1 X99.617 Y46.136 E29.15146
G1 X100.075 Y45.392 E29.24444
G1 X101.1 Y43.929 E29.43457
G1 X101.37 Y43.567 E29.48263
G1 X101.757 Y43.081 E29.54875
G1 X102.309 Y42.464 E29.63687
G1 X103.573 Y41.199 E29.8272
G1 X103.94 Y40.855 E29.88074
G1 X104.411 Y40.444 E29.94727
G1 X105.029 Y39.961 E30.03075
G1 X106.493 Y38.936 E30.22096
G1 X106.939 Y38.647 E30.27752
G1 X107.473 Y38.328 E30.34373
G1 X108.144 Y37.973 E30.42452
G1 X109.765 Y37.219 E30.6148
G1 X110.264 Y37.008 E30.67246
G1 X110.848 Y36.787 E30.73892
G1 X111.551 Y36.561 E30.81751
G1 X113.278 Y36.099 E31.00779
G1 X113.857 Y35.969 E31.07094
G1 X114.47 Y35.857 E31.13727
G1 X115.156 Y35.765 E31.21093
G1 X116.939 Y35.61 E31.40142
G1 X117.564 Y35.582 E31.46801
G1 X118.184 Y35.581 E31.53399
G1 X118.842 Y35.609 E31.60409
G1 X120.625 Y35.766 E31.79459
G1 X121.267 Y35.852 E31.86353
G1 X121.88 Y35.961 E31.9298
G1 X122.506 Y36.1 E31.99805
G1 X124.233 Y36.565 E32.1884
G1 X124.903 Y36.781 E32.26333
G1 X125.487 Y37 E32.32971
G1 X126.012 Y37.22 E32.3903
G1 X127.632 Y37.975 E32.58052
G1 X128.278 Y38.316 E32.65827
G1 X128.814 Y38.634 E32.7246
G1 X129.288 Y38.94 E32.78465
G1 X130.751 Y39.967 E32.9749
G1 X131.347 Y40.433 E33.05542
G1 X131.817 Y40.841 E33.12166
G1 X132.202 Y41.201 E33.17776
G1 X133.465 Y42.467 E33.36809
G1 X134.001 Y43.066 E33.45364
G1 X134.39 Y43.552 E33.5199
G1 X134.673 Y43.93 E33.57015
G1 X135.698 Y45.394 E33.76036
G1 X136.14 Y46.109 E33.84983
G1 X136.438 Y46.659 E33.91641
G1 X136.64 Y47.059 E33.9641
G1 X137.394 Y48.679 E34.15428
G1 X137.717 Y49.5 E34.24818
G1 X137.91 Y50.091 E34.31435
G1 X138.024 Y50.475 E34.35699
G1 X138.486 Y52.203 E34.54736
G1 X138.667 Y53.101 E34.64486
G1 X138.752 Y53.719 E34.71125
G1 X138.794 Y54.088 E34.75078
G1 X138.948 Y55.869 E34.94105
G1 X138.968 Y56.822 E35.0425
G1 X138.92 Y57.767 E35.14321
G1 X138.764 Y59.549 E35.33359
G1 X138.612 Y60.525 E35.43872
G1 X138.402 Y61.428 E35.5374
G1 X137.937 Y63.156 E35.72786
G1 X137.604 Y64.121 E35.83651
G1 X137.256 Y64.929 E35.93014
G1 X136.5 Y66.548 E36.12031
G1 X135.978 Y67.481 E36.2341
G1 X135.515 Y68.179 E36.32325
G1 X134.487 Y69.646 E36.51391
G1 X133.782 Y70.506 E36.63226
G1 X133.234 Y71.076 E36.71642
G1 X131.969 Y72.34 E36.90675
G1 X131.105 Y73.08 E37.02782
G1 X130.481 Y73.533 E37.10989
G1 X129.015 Y74.558 E37.30028
G1 X128.365 Y74.964 E37.38185
G1 X128.004 Y75.151 E37.42512
G1 X127.346 Y75.469 E37.5029
G1 X125.721 Y76.226 E37.6937
G1 X125.01 Y76.513 E37.7753
G1 X124.534 Y76.659 E37.8283
G1 X122.211 Y77.287 E38.08441
G1 X121.461 Y77.448 E38.16606
G1 X120.934 Y77.514 E38.22258
G1 X118.531 Y77.725 E38.47933
G1 X117.764 Y77.752 E38.56101
G1 X117.247 Y77.725 E38.61611
G1 X114.842 Y77.515 E38.87305
G1 X114.082 Y77.409 E38.95473
G1 X113.563 Y77.288 E39.01145
G1 X111.238 Y76.66 E39.26777
G1 X110.509 Y76.422 E39.34939
G1 X110.043 Y76.224 E39.40328
G1 X108.344 Y75.43 E39.60288
G1 X107.781 Y75.159 E39.66938
G1 X107.108 Y74.79 E39.75107
G1 X106.75 Y74.555 E39.79665
G1 X105.187 Y73.459 E39.99983
G1 X104.684 Y73.094 E40.06597
G1 X104.088 Y72.612 E40.14755
G1 X103.801 Y72.339 E40.18971
G1 X102.427 Y70.962 E40.39675
G1 X101.995 Y70.511 E40.46322
G1 X101.279 Y69.638 E40.58339
G1 X100.151 Y68.022 E40.79314
G1 X99.807 Y67.503 E40.85941
G1 X99.27 Y66.544 E40.97639
G1 X98.714 Y65.349 E41.11667
G1 X98.077 Y66.203 E41.23006
G1 X97.583 Y66.79 E41.31172
G1 X97.151 Y67.216 E41.37629
G1 X96.47 Y67.835 E41.47424
G1 X95.877 Y68.321 E41.55584
G1 X95.4 Y68.643 E41.6171
G1 X94.615 Y69.13 E41.71542
G1 X93.943 Y69.5 E41.79706
G1 X93.386 Y69.742 E41.8617
G1 X92.526 Y70.074 E41.95982
G1 X91.797 Y70.313 E42.04147
G1 X91.192 Y70.449 E42.10747
G1 X90.252 Y70.62 E42.20916
G1 X89.491 Y70.718 E42.29082
G1 X88.935 Y70.739 E42.35004
G1 X88.047 Y70.739 E42.44455
G1 X87.281 Y70.699 E42.52619
G1 X86.688 Y70.612 E42.58998
G1 X85.778 Y70.441 E42.68853
G1 X85.032 Y70.261 E42.77021
G1 X84.486 Y70.074 E42.83163
G1 X83.626 Y69.742 E42.92975
G1 X82.926 Y69.429 E43.01136
G1 X82.397 Y69.13 E43.07603
G1 X81.612 Y68.643 E43.17435
G1 X80.982 Y68.205 E43.25602
G1 X80.542 Y67.835 E43.31721
G1 X79.861 Y67.216 E43.41515
G1 X79.596 Y66.949 E43.45519
G1 X79.423 Y67.12 E43.48108
G1 X78.742 Y67.739 E43.57903
G1 X78.149 Y68.225 E43.66063
G1 X77.672 Y68.547 E43.72189
G1 X76.887 Y69.034 E43.82021
G1 X76.215 Y69.404 E43.90185
G1 X75.658 Y69.646 E43.96649
G1 X74.798 Y69.978 E44.06461
G1 X74.069 Y70.217 E44.14626
G1 X73.463 Y70.353 E44.21236
G1 X72.522 Y70.524 E44.31415
G1 X71.761 Y70.622 E44.39582
G1 X71.206 Y70.643 E44.45493
G1 X70.318 Y70.643 E44.54944
G1 X69.552 Y70.603 E44.63108
G1 X68.957 Y70.516 E44.69508
G1 X68.048 Y70.345 E44.79353
G1 X67.303 Y70.164 E44.87512
G1 X66.758 Y69.978 E44.93642
G1 X65.898 Y69.646 E45.03453
G1 X65.198 Y69.333 E45.11614
G1 X64.669 Y69.034 E45.18082
G1 X63.884 Y68.547 E45.27914
G1 X63.254 Y68.109 E45.3608
G1 X62.814 Y67.739 E45.42199
G1 X62.133 Y67.12 E45.51994
G1 X61.593 Y66.575 E45.6016
G1 X61.207 Y66.107 E45.66616
G1 X60.651 Y65.37 E45.76442
G1 X60.222 Y64.734 E45.84607
G1 X59.939 Y64.219 E45.90862
G1 X59.526 Y63.39 E46.00719
G1 X59.22 Y62.686 E46.08889
G1 X59.034 Y62.12 E46.1523
G1 X58.783 Y61.237 E46.25
G1 X58.612 Y60.49 E46.33157
G1 X58.534 Y59.903 E46.39459
G1 X58.449 Y58.984 E46.49282
G1 X58.419 Y58.217 E46.57452
G0 F6000 X59.059 Y58.192
G1 F1200 X59.086 Y57.69 E46.62802
G1 X59.171 Y56.767 E46.72668
G1 X59.278 Y56.042 E46.80467
G1 X59.399 Y55.546 E46.85901
G1 X59.65 Y54.663 E46.95672
G1 X59.889 Y53.97 E47.03474
G1 X60.101 Y53.501 E47.08952
G1 X60.515 Y52.671 E47.18824
G1 X60.877 Y52.033 E47.26631
G1 X61.166 Y51.619 E47.32005
G1 X61.722 Y50.883 E47.41822
G1 X62.195 Y50.324 E47.49616
G1 X62.56 Y49.965 E47.55064
G1 X63.24 Y49.346 E47.64851
G1 X63.808 Y48.882 E47.72657
G1 X64.221 Y48.605 E47.7795
G1 X65.006 Y48.118 E47.87782
G1 X65.649 Y47.766 E47.95584
G1 X66.129 Y47.559 E48.01148
G1 X66.989 Y47.227 E48.1096
G1 X67.686 Y47.001 E48.18758
G1 X68.174 Y46.891 E48.24082
G1 X69.083 Y46.721 E48.33925
G1 X69.809 Y46.625 E48.41719
G1 X70.353 Y46.606 E48.47512
G1 X71.302 Y46.611 E48.57613
G1 X72.034 Y46.655 E48.65418
