;FLAVOR:Marlin
;TIME:3610
;Filament used: 2.49442m
;Layer height: 0.2
;MINX:54.032
;MINY:26.873
;MINZ:0.4
;MAXX:92.352
;MAXY:70.693
;MAXZ:23
;Generated with Cura_SteamEngine 5.0.0
M140 S70
M105
M190 S70
M104 S215
M105
M109 S215
M82 ;absolute extrusion mode
; Ender 3 Custom Start G-code
G92 E0 ; Reset Extruder
G28 ; Home all axes
G1 Z2.0 F3000 ; Move Z Axis up little to prevent scratching of Heat Bed
G1 X0.1 Y20 Z0.3 F5000.0 ; Move to start position
G1 X0.1 Y200.0 Z0.3 F1500.0 E15 ; Draw the first line
G1 X0.4 Y200.0 Z0.3 F5000.0 ; Move to side a little
G1 X0.4 Y20 Z0.3 F1500.0 E30 ; Draw the second line
G92 E0 ; Reset Extruder
G1 Z2.0 F3000 ; Move Z Axis up little to prevent scratching of Heat Bed
G1 X5 Y20 Z0.3 F5000.0 ; Move over to prevent blob squish
G92 E0
G92 E0
G1 F1500 E-6.5
;LAYER_COUNT:114
;LAYER:0
M107 P2
G0 F6000 X54.656 Y28.842 Z0.4
G0 X54.032 Y31.033
;TYPE:SKIRT
G1 F1500 E0
G1 F1200 X54.072 Y30.458 E0.06135
G1 X54.191 Y29.894 E0.1227
G1 X54.387 Y29.352 E0.18404
G1 X54.656 Y28.842 E0.24541
G1 X54.993 Y28.374 E0.30679
G1 X55.391 Y27.957 E0.36814
G1 X55.844 Y27.599 E0.42959
G1 X56.341 Y27.308 E0.49089
G1 X56.874 Y27.087 E0.5523
G1 X57.432 Y26.943 E0.61364
G1 X58.192 Y26.873 E0.69487
G1 X88.192 Y26.873 E3.88784
G1 X88.767 Y26.913 E3.94919
G1 X89.331 Y27.032 E4.01054
G1 X89.873 Y27.228 E4.07188
G1 X90.383 Y27.497 E4.13325
G1 X90.851 Y27.834 E4.19463
G1 X91.268 Y28.232 E4.25598
G1 X91.626 Y28.685 E4.31743
G1 X91.917 Y29.182 E4.37873
G1 X92.138 Y29.715 E4.44014
G1 X92.282 Y30.273 E4.50148
G1 X92.352 Y31.033 E4.58271
G1 X92.352 Y66.533 E8.36106
G1 X92.312 Y67.108 E8.42241
G1 X92.193 Y67.672 E8.48376
G1 X91.997 Y68.214 E8.5451
G1 X91.728 Y68.724 E8.60647
G1 X91.391 Y69.192 E8.66785
G1 X90.993 Y69.609 E8.7292
G1 X90.54 Y69.967 E8.79065
G1 X90.043 Y70.258 E8.85195
G1 X89.51 Y70.479 E8.91336
G1 X88.952 Y70.623 E8.9747
G1 X88.192 Y70.693 E9.05593
G1 X58.192 Y70.693 E12.2489
G1 X57.617 Y70.653 E12.31025
G1 X57.053 Y70.534 E12.3716
G1 X56.511 Y70.338 E12.43294
G1 X56.001 Y70.069 E12.49431
G1 X55.533 Y69.732 E12.55569
G1 X55.116 Y69.334 E12.61704
G1 X54.758 Y68.881 E12.67849
G1 X54.467 Y68.384 E12.73979
G1 X54.246 Y67.851 E12.8012
G1 X54.102 Y67.293 E12.86254
G1 X54.032 Y66.533 E12.94377
G1 X54.032 Y31.033 E16.72212
G0 F6000 X54.672 Y31.033
G1 F1200 X54.712 Y30.504 E16.77858
G1 X54.831 Y29.987 E16.83505
G1 X55.026 Y29.494 E16.89147
G1 X55.293 Y29.036 E16.9479
G1 X55.626 Y28.623 E17.00436
G1 X56.017 Y28.265 E17.06079
G1 X56.457 Y27.97 E17.11717
G1 X56.937 Y27.744 E17.17363
G1 X57.446 Y27.593 E17.23014
G1 X58.192 Y27.513 E17.31
G1 X88.192 Y27.513 E20.50297
G1 X88.721 Y27.553 E20.55943
G1 X89.238 Y27.672 E20.6159
G1 X89.731 Y27.867 E20.67232
G1 X90.189 Y28.134 E20.72875
G1 X90.602 Y28.467 E20.78521
G1 X90.96 Y28.858 E20.84164
G1 X91.255 Y29.298 E20.89802
G1 X91.481 Y29.778 E20.95449
G1 X91.632 Y30.287 E21.01099
G1 X91.712 Y31.033 E21.09085
G1 X91.712 Y66.533 E24.8692
G1 X91.672 Y67.062 E24.92566
G1 X91.553 Y67.579 E24.98213
G1 X91.358 Y68.072 E25.03855
G1 X91.091 Y68.53 E25.09498
G1 X90.758 Y68.943 E25.15144
G1 X90.367 Y69.301 E25.20787
G1 X89.927 Y69.596 E25.26425
G1 X89.447 Y69.822 E25.32072
G1 X88.938 Y69.973 E25.37722
G1 X88.192 Y70.053 E25.45708
G1 X58.192 Y70.053 E28.65005
G1 X57.663 Y70.013 E28.70651
G1 X57.146 Y69.894 E28.76298
G1 X56.653 Y69.699 E28.8194
G1 X56.195 Y69.432 E28.87583
G1 X55.782 Y69.099 E28.93229
G1 X55.424 Y68.708 E28.98872
G1 X55.129 Y68.268 E29.0451
G1 X54.903 Y67.788 E29.10157
G1 X54.752 Y67.279 E29.15807
G1 X54.672 Y66.533 E29.23793
G1 X54.672 Y31.033 E33.01628
G0 F6000 X55.312 Y31.033
G1 F1200 X55.352 Y30.555 E33.06733
G1 X55.471 Y30.09 E33.11842
G1 X55.665 Y29.652 E33.1694
G1 X55.929 Y29.252 E33.22041
G1 X56.256 Y28.901 E33.27147
G1 X56.637 Y28.609 E33.32256
G1 X57.06 Y28.385 E33.3735
G1 X57.516 Y28.234 E33.42463
G1 X58.192 Y28.153 E33.49709
G1 X88.192 Y28.153 E36.69007
G1 X88.67 Y28.193 E36.74112
G1 X89.135 Y28.312 E36.7922
G1 X89.573 Y28.506 E36.84319
G1 X89.973 Y28.77 E36.8942
G1 X90.324 Y29.097 E36.94526
G1 X90.616 Y29.478 E36.99635
G1 X90.84 Y29.901 E37.04729
G1 X90.991 Y30.357 E37.09842
G1 X91.072 Y31.033 E37.17088
G1 X91.072 Y66.533 E40.94923
G1 X91.032 Y67.011 E41.00028
G1 X90.913 Y67.476 E41.05137
G1 X90.719 Y67.914 E41.10235
G1 X90.455 Y68.314 E41.15336
G1 X90.128 Y68.665 E41.20442
G1 X89.747 Y68.957 E41.25551
G1 X89.324 Y69.181 E41.30645
G1 X88.868 Y69.332 E41.35758
G1 X88.192 Y69.413 E41.43004
G1 X58.192 Y69.413 E44.62302
G1 X57.714 Y69.373 E44.67407
G1 X57.249 Y69.254 E44.72515
G1 X56.811 Y69.06 E44.77614
G1 X56.411 Y68.796 E44.82715
G1 X56.06 Y68.469 E44.87821
G1 X55.768 Y68.088 E44.9293
G1 X55.544 Y67.665 E44.98024
G1 X55.393 Y67.209 E45.03137
G1 X55.312 Y66.533 E45.10383
G1 X55.312 Y31.033 E48.88218
G0 F6000 X55.952 Y31.033
G1 F1200 X55.992 Y30.612 E48.92719
G1 X56.11 Y30.206 E48.97219
G1 X56.303 Y29.83 E49.01717
G1 X56.563 Y29.496 E49.06222
G1 X56.88 Y29.217 E49.10717
G1 X57.245 Y29.003 E49.1522
G1 X57.643 Y28.861 E49.19718
G1 X58.192 Y28.793 E49.25605
G1 X88.192 Y28.793 E52.44903
G1 X88.613 Y28.833 E52.49404
G1 X89.019 Y28.951 E52.53904
G1 X89.395 Y29.144 E52.58402
G1 X89.729 Y29.404 E52.62907
G1 X90.008 Y29.721 E52.67401
G1 X90.222 Y30.086 E52.71905
G1 X90.364 Y30.484 E52.76402
G1 X90.432 Y31.033 E52.8229
G1 X90.432 Y66.533 E56.60125
G1 X90.392 Y66.954 E56.64626
G1 X90.274 Y67.36 E56.69126
G1 X90.081 Y67.736 E56.73624
G1 X89.821 Y68.07 E56.78129
G1 X89.504 Y68.349 E56.82624
G1 X89.139 Y68.563 E56.87127
G1 X88.741 Y68.705 E56.91625
G1 X88.192 Y68.773 E56.97512
G1 X58.192 Y68.773 E60.1681
G1 X57.771 Y68.733 E60.21311
G1 X57.365 Y68.615 E60.25811
G1 X56.989 Y68.422 E60.30309
G1 X56.655 Y68.162 E60.34814
G1 X56.376 Y67.845 E60.39308
G1 X56.162 Y67.48 E60.43812
G1 X56.02 Y67.082 E60.48309
G1 X55.952 Y66.533 E60.54197
G1 X55.952 Y31.033 E64.32032
G0 F6000 X56.592 Y31.033
G1 F1200 X56.632 Y30.678 E64.35834
G1 X56.75 Y30.341 E64.39635
G1 X56.939 Y30.038 E64.43435
G1 X57.191 Y29.785 E64.47236
G1 X57.493 Y29.594 E64.51039
G1 X57.83 Y29.475 E64.54843
G1 X58.192 Y29.433 E64.58722
G1 X88.192 Y29.433 E67.78019
G1 X88.547 Y29.473 E67.81821
G1 X88.884 Y29.591 E67.85622
G1 X89.187 Y29.78 E67.89422
G1 X89.44 Y30.032 E67.93223
G1 X89.631 Y30.334 E67.97026
G1 X89.75 Y30.671 E68.0083
G1 X89.792 Y31.033 E68.04709
G1 X89.792 Y66.533 E71.82544
G1 X89.752 Y66.888 E71.86346
G1 X89.634 Y67.225 E71.90146
G1 X89.445 Y67.528 E71.93947
G1 X89.193 Y67.781 E71.97748
G1 X88.891 Y67.972 E72.01551
G1 X88.554 Y68.091 E72.05355
G1 X88.192 Y68.133 E72.09234
G1 X58.192 Y68.133 E75.28531
G1 X57.837 Y68.093 E75.32333
G1 X57.5 Y67.975 E75.36133
G1 X57.197 Y67.786 E75.39934
G1 X56.944 Y67.534 E75.43735
G1 X56.753 Y67.232 E75.47538
G1 X56.634 Y66.895 E75.51342
G1 X56.592 Y66.533 E75.5522
G1 X56.592 Y31.033 E79.33056
G0 F6000 X57.232 Y31.033
G1 F1200 X57.272 Y30.759 E79.36003
G1 X57.388 Y30.509 E79.38936
G1 X57.571 Y30.301 E79.41885
G1 X57.805 Y30.155 E79.4482
G1 X58.192 Y30.073 E79.49031
G1 X88.192 Y30.073 E82.68328
G1 X88.466 Y30.113 E82.71275
G1 X88.716 Y30.229 E82.74208
G1 X88.924 Y30.412 E82.77157
G1 X89.07 Y30.646 E82.80093
G1 X89.152 Y31.033 E82.84303
G1 X89.152 Y66.533 E86.62138
G1 X89.112 Y66.807 E86.65085
G1 X88.996 Y67.057 E86.68018
G1 X88.813 Y67.265 E86.70967
G1 X88.579 Y67.411 E86.73903
G1 X88.192 Y67.493 E86.78113
G1 X58.192 Y67.493 E89.9741
G1 X57.918 Y67.453 E90.00358
G1 X57.668 Y67.337 E90.03291
G1 X57.46 Y67.154 E90.06239
G1 X57.314 Y66.92 E90.09175
G1 X57.232 Y66.533 E90.13385
G1 X57.232 Y31.033 E93.9122
G0 F6000 X57.872 Y31.033
G1 F1200 X57.911 Y30.879 E93.92911
G1 X58.02 Y30.763 E93.94605
G1 X58.192 Y30.713 E93.96512
G1 X88.192 Y30.713 E97.15809
G1 X88.346 Y30.752 E97.175
G1 X88.462 Y30.861 E97.19194
G1 X88.512 Y31.033 E97.21101
G1 X88.512 Y66.533 E100.98936
G1 X88.473 Y66.687 E101.00626
G1 X88.364 Y66.803 E101.02321
G1 X88.192 Y66.853 E101.04227
G1 X58.192 Y66.853 E104.23524
G1 X58.038 Y66.814 E104.25215
G1 X57.922 Y66.705 E104.26909
G1 X57.872 Y66.533 E104.28816
G1 X57.872 Y31.033 E108.06651
G1 F1500 E101.56651
;MESH:z_stabilazer-Body.stl
G0 F6000 X69.089 Y42.355
G0 X68.463 Y45.207
G0 X68.394 Y46.151
G0 X68.514 Y47.106
G0 X68.907 Y48.195
G0 X69.588 Y49.204
G0 X70.297 Y49.862
G0 X71.334 Y50.459
G0 X72.242 Y50.737
G0 X73.029 Y50.815
G0 X74.183 Y50.79
G1 F1500 E108.06651
G0 F6000 X74.113 Y50.509
;TYPE:WALL-OUTER
G1 F1200 X73.685 Y50.577 E108.11263
G1 X73.231 Y50.603 E108.16103
G1 X72.753 Y50.582 E108.21196
G1 X72.3 Y50.515 E108.26069
G1 X71.853 Y50.401 E108.30979
G1 X71.816 Y50.39 E108.3139
G1 X71.231 Y50.16 E108.3808
G1 X70.801 Y49.927 E108.43286
G1 X70.767 Y49.905 E108.43717
G1 X70.254 Y49.531 E108.50474
G1 X70.219 Y49.502 E108.50957
G1 X69.779 Y49.074 E108.5749
G1 X69.489 Y48.711 E108.62435
G1 X69.466 Y48.678 E108.62864
G1 X69.126 Y48.117 E108.69845
G1 X69.104 Y48.075 E108.7035
G1 X68.859 Y47.488 E108.7712
G1 X68.739 Y47.064 E108.8181
G1 X68.656 Y46.593 E108.869
G1 X68.623 Y46.164 E108.9148
G1 X68.634 Y45.707 E108.96345
G1 X68.637 Y45.668 E108.96761
G1 X68.731 Y45.037 E109.03551
G1 X68.742 Y44.99 E109.04065
G1 X68.929 Y44.384 E109.10815
G1 X68.946 Y44.339 E109.11327
G1 X69.222 Y43.768 E109.18077
G1 X69.47 Y43.378 E109.22996
G1 X69.762 Y43.013 E109.27971
G1 X70.112 Y42.657 E109.33284
G1 X70.421 Y42.398 E109.37576
G1 X70.453 Y42.375 E109.37995
G1 X70.985 Y42.031 E109.44738
G1 X71.404 Y41.827 E109.49698
G1 X71.851 Y41.663 E109.54766
G1 X71.892 Y41.651 E109.5522
G1 X72.526 Y41.511 E109.62131
G1 X72.948 Y41.469 E109.66644
G1 X72.989 Y41.468 E109.67081
G1 X73.625 Y41.484 E109.73852
G1 X74.083 Y41.55 E109.78777
G1 X74.53 Y41.664 E109.83687
G1 X74.568 Y41.676 E109.84111
G1 X75.173 Y41.915 E109.91034
G1 X75.216 Y41.936 E109.91544
G1 X75.749 Y42.245 E109.98101
G1 X76.12 Y42.524 E110.03041
G1 X76.486 Y42.877 E110.08453
G1 X76.88 Y43.337 E110.149
G1 X77.152 Y43.752 E110.20181
G1 X77.343 Y44.122 E110.24613
G1 X77.522 Y44.577 E110.29817
G1 X77.643 Y45 E110.34499
G1 X77.652 Y45.039 E110.34925
G1 X77.747 Y45.668 E110.41696
G1 X77.76 Y46.13 E110.46615
G1 X77.759 Y46.169 E110.4703
G1 X77.697 Y46.815 E110.53937
G1 X77.529 Y47.467 E110.61103
G1 X77.515 Y47.509 E110.61574
G1 X77.271 Y48.096 E110.6834
G1 X77.248 Y48.141 E110.68878
G1 X76.916 Y48.682 E110.75634
G1 X76.888 Y48.721 E110.76145
G1 X76.479 Y49.207 E110.82905
G1 X76.446 Y49.241 E110.8341
G1 X75.968 Y49.662 E110.90189
G1 X75.609 Y49.911 E110.94839
G1 X75.357 Y50.044 E110.97872
G1 X75.009 Y50.225 E111.02047
G1 X74.532 Y50.402 E111.07462
G1 X74.113 Y50.509 E111.12064
G0 F6000 X73.783 Y51.209
;TYPE:WALL-INNER
G1 F1200 X73.266 Y51.242 E111.17578
G1 X72.723 Y51.221 E111.23362
G1 X72.204 Y51.148 E111.2894
G1 X71.693 Y51.021 E111.34544
G1 X71.583 Y50.986 E111.35773
G1 X70.998 Y50.756 E111.42463
G1 X70.492 Y50.487 E111.48562
G1 X70.39 Y50.422 E111.4985
G1 X69.877 Y50.048 E111.56607
G1 X69.773 Y49.961 E111.5805
G1 X69.333 Y49.533 E111.64583
G1 X68.987 Y49.109 E111.70407
G1 X68.918 Y49.01 E111.71692
G1 X68.578 Y48.449 E111.78674
G1 X68.513 Y48.321 E111.80201
G1 X68.268 Y47.734 E111.86971
G1 X68.122 Y47.235 E111.92505
G1 X68.025 Y46.702 E111.98271
G1 X67.985 Y46.21 E112.03525
G1 X67.994 Y45.691 E112.0905
G1 X68.004 Y45.574 E112.10299
G1 X68.098 Y44.943 E112.17089
G1 X68.13 Y44.801 E112.18639
G1 X68.317 Y44.195 E112.25388
G1 X68.37 Y44.061 E112.26922
G1 X68.646 Y43.49 E112.33672
G1 X68.932 Y43.032 E112.39419
G1 X69.242 Y42.637 E112.44763
G1 X69.564 Y42.301 E112.49716
G1 X70.01 Y41.908 E112.56043
G1 X70.105 Y41.837 E112.57306
G1 X70.637 Y41.493 E112.64048
G1 X71.128 Y41.25 E112.69879
G1 X71.632 Y41.061 E112.75608
G1 X71.754 Y41.026 E112.76959
G1 X72.416 Y40.881 E112.84172
G1 X72.886 Y40.832 E112.89201
G1 X73.005 Y40.828 E112.90469
G1 X73.641 Y40.844 E112.9724
G1 X74.178 Y40.917 E113.03008
G1 X74.69 Y41.044 E113.08622
G1 X74.803 Y41.081 E113.09888
G1 X75.408 Y41.32 E113.16811
G1 X75.537 Y41.382 E113.18335
G1 X76.07 Y41.691 E113.24892
G1 X76.508 Y42.015 E113.3069
G1 X76.932 Y42.418 E113.36916
G1 X77.132 Y42.624 E113.39972
G1 X77.382 Y42.94 E113.44261
G1 X77.689 Y43.404 E113.50182
G1 X77.913 Y43.831 E113.55314
G1 X78.118 Y44.343 E113.61184
G1 X78.259 Y44.826 E113.66539
G1 X78.285 Y44.943 E113.67815
G1 X78.38 Y45.572 E113.74586
G1 X78.4 Y46.115 E113.80369
G1 X78.396 Y46.229 E113.81583
G1 X78.337 Y46.85 E113.88222
G1 X78.311 Y47 E113.89842
G1 X78.149 Y47.627 E113.96735
G1 X78.106 Y47.755 E113.98172
G1 X77.862 Y48.342 E114.04938
G1 X77.794 Y48.476 E114.06537
G1 X77.462 Y49.017 E114.13293
G1 X77.378 Y49.133 E114.14817
G1 X76.969 Y49.619 E114.21578
G1 X76.869 Y49.721 E114.23098
G1 X76.391 Y50.142 E114.29877
G1 X75.971 Y50.439 E114.35352
G1 X75.652 Y50.612 E114.39215
G1 X75.304 Y50.793 E114.4339
G1 X74.751 Y51.003 E114.49685
G1 X74.269 Y51.13 E114.54991
G1 X73.783 Y51.209 E114.60231
G1 F1500 E108.10231
G0 F6000 X75.293 Y51.126
G0 X86.912 Y51.126
G0 X87.612 Y65.953
G1 F1500 E114.60231
G0 F6000 X87.872 Y66.213
;TYPE:WALL-OUTER
G1 F1200 X87.872 Y38.064 E117.59828
G1 X87.872 Y31.353 E118.31254
G1 X58.512 Y31.353 E121.4374
G1 X58.512 Y66.213 E125.14764
G1 X87.872 Y66.213 E128.27249
G0 F6000 X87.232 Y65.573
;TYPE:WALL-INNER
G1 F1200 X87.232 Y38.064 E131.20034
G1 X87.232 Y31.993 E131.84649
G1 X59.152 Y31.993 E134.83512
G1 X59.152 Y65.573 E138.40912
G1 X87.232 Y65.573 E141.39774
G0 F6000 X86.632 Y64.973
;TYPE:SKIN
G1 F1200 X86.632 Y38.063 E144.26184
G1 X86.632 Y32.593 E144.84402
G1 X59.753 Y32.594 E147.70482
G1 X59.753 Y64.972 E151.15089
G1 X86.632 Y64.973 E154.01169
G1 F1500 E147.51169
G0 F6000 X87.012 Y64.973
G0 X86.912 Y51.438
G0 X75.293 Y51.126
G0 X73.697 Y51.438
G1 F1500 E154.01169
G0 F6000 X73.715 Y51.819
G1 F1200 X73.134 Y51.842 E154.07357
G1 X72.562 Y51.808 E154.13456
G1 X71.988 Y51.716 E154.19643
G1 X71.954 Y51.709 E154.20012
G1 X71.376 Y51.548 E154.26398
G1 X70.759 Y51.308 E154.33445
G1 X70.589 Y51.227 E154.35449
G1 X70.06 Y50.924 E154.41937
G1 X70.03 Y50.905 E154.42315
G1 X69.507 Y50.52 E154.49227
G1 X69.35 Y50.387 E154.51417
G1 X68.901 Y49.948 E154.58101
G1 X68.772 Y49.805 E154.6015
G1 X68.404 Y49.319 E154.66639
G1 X68.064 Y48.76 E154.73602
G1 X67.962 Y48.557 E154.7602
G1 X67.698 Y47.929 E154.83271
G1 X67.649 Y47.776 E154.84981
G1 X67.507 Y47.234 E154.90944
G1 X67.418 Y46.676 E154.96958
G1 X67.383 Y46.128 E155.02802
G1 X67.407 Y45.518 E155.093
G1 X67.41 Y45.484 E155.09663
G1 X67.506 Y44.846 E155.1653
G1 X67.555 Y44.625 E155.18939
G1 X67.744 Y44.016 E155.25726
G1 X67.831 Y43.791 E155.28293
G1 X68.115 Y43.211 E155.35167
G1 X68.201 Y43.061 E155.37007
G1 X68.502 Y42.601 E155.42858
G1 X68.522 Y42.574 E155.43216
G1 X68.877 Y42.142 E155.49167
G1 X69.294 Y41.725 E155.55443
G1 X69.32 Y41.702 E155.55813
G1 X69.753 Y41.353 E155.61732
G1 X69.779 Y41.334 E155.62075
G1 X70.327 Y40.98 E155.69018
G1 X70.489 Y40.89 E155.70991
G1 X70.983 Y40.659 E155.76795
G1 X71.015 Y40.646 E155.77163
G1 X71.603 Y40.444 E155.8378
G1 X71.639 Y40.434 E155.84177
G1 X72.263 Y40.3 E155.9097
G1 X72.437 Y40.272 E155.92846
G1 X73.011 Y40.228 E155.98973
G1 X73.674 Y40.245 E156.06032
G1 X73.853 Y40.262 E156.07946
G1 X74.433 Y40.357 E156.14201
G1 X75.009 Y40.518 E156.20566
G1 X75.634 Y40.762 E156.27707
G1 X75.839 Y40.863 E156.3014
G1 X76.386 Y41.181 E156.36874
G1 X76.542 Y41.284 E156.38863
G1 X76.99 Y41.637 E156.44934
G1 X77.341 Y41.977 E156.50135
G1 X77.584 Y42.228 E156.53853
G1 X77.917 Y42.655 E156.59617
G1 X77.935 Y42.68 E156.59944
G1 X78.259 Y43.191 E156.66384
G1 X78.499 Y43.672 E156.72106
G1 X78.512 Y43.701 E156.72444
G1 X78.719 Y44.245 E156.78639
G1 X78.729 Y44.277 E156.78996
G1 X78.871 Y44.818 E156.84949
G1 X78.878 Y44.852 E156.85318
G1 X78.975 Y45.498 E156.92271
G1 X78.99 Y45.683 E156.94246
G1 X78.996 Y46.255 E157.00334
G1 X78.923 Y47.005 E157.08355
G1 X78.915 Y47.053 E157.08872
G1 X78.724 Y47.798 E157.17058
G1 X78.664 Y47.971 E157.19007
G1 X78.403 Y48.601 E157.26265
G1 X78.304 Y48.79 E157.28536
G1 X77.961 Y49.347 E157.35498
G1 X77.836 Y49.52 E157.3777
G1 X77.41 Y50.024 E157.44793
G1 X77.266 Y50.171 E157.46983
G1 X76.773 Y50.607 E157.53988
G1 X76.312 Y50.933 E157.59997
G1 X75.936 Y51.142 E157.64576
G1 X75.428 Y51.393 E157.70607
G1 X75.394 Y51.407 E157.70998
