;FLAVOR:Marlin
;TIME:3031
;Filament used: 2.11778m
;Layer height: 0.2
;MINX:94.71
;MINY:40.946
;MINZ:0.4
;MAXX:127.017
;MAXY:73.556
;MAXZ:31.2
;Generated with Cura_SteamEngine 5.0.0
M140 S70
M105
M190 S70
M104 S215
M105
M109 S215
M82 ;absolute extrusion mode
; Ender 3 Custom Start G-code
G92 E0 ; Reset Extruder
G28 ; Home all axes
G1 Z2.0 F3000 ; Move Z Axis up little to prevent scratching of Heat Bed
G1 X0.1 Y20 Z0.3 F5000.0 ; Move to start position
G1 X0.1 Y200.0 Z0.3 F1500.0 E15 ; Draw the first line
G1 X0.4 Y200.0 Z0.3 F5000.0 ; Move to side a little
G1 X0.4 Y20 Z0.3 F1500.0 E30 ; Draw the second line
G92 E0 ; Reset Extruder
G1 Z2.0 F3000 ; Move Z Axis up little to prevent scratching of Heat Bed
G1 X5 Y20 Z0.3 F5000.0 ; Move over to prevent blob squish
G92 E0
G92 E0
G1 F1500 E-6.5
;LAYER_COUNT:155
;LAYER:0
M107 P2
G0 F6000 X95.375 Y48.922 Z0.4
G0 X94.71 Y58.346
;TYPE:SKIRT
G1 F1500 E0
G1 F1200 X94.716 Y57.543 E0.08547
G1 X94.762 Y56.82 E0.16257
G1 X94.847 Y56.051 E0.24492
G1 X94.968 Y55.302 E0.32567
G1 X95.117 Y54.59 E0.40309
G1 X95.313 Y53.855 E0.48405
G1 X95.527 Y53.184 E0.55901
G1 X95.301 Y52.803 E0.60616
G1 X95.078 Y52.272 E0.66746
G1 X94.931 Y51.714 E0.72887
G1 X94.862 Y51.142 E0.7902
G1 X94.873 Y50.565 E0.85162
G1 X94.964 Y49.996 E0.91295
G1 X95.132 Y49.445 E0.97426
G1 X95.375 Y48.922 E1.03564
G1 X95.61 Y48.546 E1.08283
G1 X96.163 Y47.768 E1.18442
G1 X96.699 Y47.092 E1.27624
G1 X97.26 Y46.456 E1.3665
G1 X97.856 Y45.842 E1.45757
G1 X98.485 Y45.257 E1.549
G1 X99.141 Y44.704 E1.64032
G1 X99.828 Y44.183 E1.73208
G1 X100.521 Y43.71 E1.82139
G1 X101.259 Y43.255 E1.91366
G1 X102.006 Y42.848 E2.0042
G1 X102.785 Y42.471 E2.09631
G1 X103.569 Y42.139 E2.18693
G1 X104.378 Y41.844 E2.27858
G1 X105.194 Y41.592 E2.36947
G1 X106.009 Y41.384 E2.459
G1 X106.869 Y41.207 E2.55245
G1 X107.711 Y41.081 E2.64306
G1 X108.559 Y40.995 E2.73378
G1 X109.41 Y40.951 E2.82447
G1 X110.057 Y40.946 E2.89334
G1 X110.917 Y40.978 E2.98493
G1 X111.768 Y41.052 E3.07585
G1 X112.607 Y41.166 E3.16596
G1 X113.452 Y41.324 E3.25746
G1 X114.293 Y41.527 E3.34954
G1 X115.112 Y41.769 E3.44043
G1 X115.91 Y42.045 E3.5303
G1 X116.721 Y42.376 E3.62353
G1 X117.488 Y42.733 E3.71358
G1 X118.251 Y43.137 E3.80546
G1 X118.981 Y43.571 E3.89585
G1 X119.69 Y44.04 E3.98633
G1 X120.387 Y44.554 E4.0785
G1 X121.045 Y45.092 E4.16897
G1 X121.683 Y45.669 E4.26052
G1 X122.283 Y46.268 E4.35076
G1 X122.861 Y46.906 E4.44238
G1 X123.399 Y47.561 E4.5326
G1 X123.914 Y48.259 E4.62492
G1 X124.379 Y48.957 E4.71419
G1 X124.824 Y49.706 E4.80691
G1 X125.226 Y50.469 E4.8987
G1 X125.58 Y51.226 E4.98765
G1 X125.906 Y52.026 E5.07959
G1 X126.189 Y52.837 E5.17101
G1 X126.43 Y53.647 E5.26096
G1 X126.63 Y54.468 E5.35089
G1 X126.792 Y55.322 E5.44341
G1 X126.91 Y56.179 E5.53548
G1 X126.984 Y57.001 E5.62332
G1 X127.017 Y57.886 E5.71758
G1 X127.007 Y58.73 E5.80741
G1 X126.953 Y59.595 E5.89966
G1 X126.86 Y60.431 E5.98918
G1 X126.725 Y61.268 E6.07942
G1 X126.542 Y62.119 E6.17206
G1 X126.325 Y62.932 E6.26162
G1 X126.062 Y63.754 E6.35348
G1 X125.766 Y64.542 E6.44307
G1 X125.417 Y65.344 E6.53616
G1 X125.045 Y66.096 E6.62545
G1 X124.616 Y66.861 E6.7188
G1 X124.17 Y67.573 E6.80822
G1 X123.671 Y68.285 E6.90076
G1 X123.155 Y68.95 E6.99035
G1 X122.599 Y69.599 E7.0813
G1 X122.006 Y70.223 E7.17292
G1 X121.389 Y70.812 E7.26371
G1 X120.744 Y71.368 E7.35435
G1 X120.069 Y71.896 E7.44556
G1 X119.368 Y72.388 E7.53671
G1 X118.643 Y72.845 E7.62792
G1 X118.306 Y73.037 E7.6692
G1 X117.784 Y73.282 E7.73057
G1 X117.233 Y73.452 E7.79195
G1 X116.664 Y73.544 E7.85329
G1 X116.088 Y73.556 E7.91461
G1 X115.515 Y73.489 E7.97601
G1 X114.957 Y73.343 E8.0374
G1 X114.425 Y73.121 E8.09876
G1 X113.928 Y72.828 E8.16016
G1 X113.81 Y72.735 E8.17615
G1 X113.201 Y72.888 E8.24298
G1 X112.706 Y72.989 E8.29675
G1 X112.167 Y73.082 E8.35497
G1 X111.92 Y73.117 E8.38152
G1 X111.009 Y73.212 E8.479
G1 X110.17 Y73.252 E8.5684
G1 X109.444 Y73.25 E8.64567
G1 X108.724 Y73.213 E8.7224
G1 X107.904 Y73.128 E8.81015
G1 X107.116 Y73.004 E8.89505
G1 X106.331 Y72.838 E8.98044
G1 X105.595 Y72.642 E9.06151
G1 X105.004 Y72.456 E9.12745
G1 X104.359 Y72.222 E9.20048
G1 X103.647 Y71.923 E9.28267
G1 X102.949 Y71.588 E9.36507
G1 X102.282 Y71.224 E9.44595
G1 X101.671 Y70.851 E9.52214
G1 X101.03 Y70.416 E9.60459
G1 X100.411 Y69.949 E9.68711
G1 X99.838 Y69.468 E9.76674
G1 X99.277 Y68.947 E9.84823
G1 X98.767 Y68.423 E9.92605
G1 X98.27 Y67.862 E10.00582
G1 X97.785 Y67.256 E10.08843
G1 X97.367 Y66.677 E10.16444
G1 X97.052 Y66.201 E10.22519
G1 X96.652 Y65.527 E10.3086
G1 X96.29 Y64.844 E10.39088
G1 X95.985 Y64.195 E10.4672
G1 X95.699 Y63.495 E10.54768
G1 X95.451 Y62.79 E10.62722
G1 X95.241 Y62.09 E10.70501
G1 X95.059 Y61.349 E10.78622
G1 X94.911 Y60.582 E10.86936
G1 X94.802 Y59.789 E10.95455
G1 X94.741 Y59.106 E11.02753
G1 X94.71 Y58.346 E11.10849
G0 F6000 X95.347 Y58.146
G1 F1200 X95.365 Y57.355 E11.1927
G1 X95.414 Y56.713 E11.26123
G1 X95.509 Y55.939 E11.34422
G1 X95.628 Y55.259 E11.4177
G1 X95.791 Y54.528 E11.49741
G1 X95.976 Y53.874 E11.56975
G1 X96.214 Y53.158 E11.65005
G1 X96.243 Y53.083 E11.65861
G1 X96.098 Y52.9 E11.68346
G1 X95.835 Y52.439 E11.73995
G1 X95.645 Y51.944 E11.79638
G1 X95.532 Y51.426 E11.85281
G1 X95.497 Y50.897 E11.90924
G1 X95.543 Y50.369 E11.96565
G1 X95.667 Y49.853 E12.02213
G1 X95.867 Y49.362 E12.07856
G1 X96.134 Y48.913 E12.13416
G1 X96.666 Y48.163 E12.23202
G1 X97.182 Y47.513 E12.32035
G1 X97.722 Y46.899 E12.40738
G1 X98.295 Y46.308 E12.49499
G1 X98.9 Y45.744 E12.58302
G1 X99.531 Y45.212 E12.67087
G1 X100.192 Y44.709 E12.75927
G1 X100.86 Y44.253 E12.84535
G1 X101.569 Y43.815 E12.93405
G1 X102.288 Y43.422 E13.02126
G1 X103.037 Y43.059 E13.10985
G1 X103.793 Y42.739 E13.19722
G1 X104.57 Y42.455 E13.28527
G1 X105.356 Y42.212 E13.37284
G1 X106.142 Y42.01 E13.45921
G1 X106.968 Y41.84 E13.54897
G1 X107.78 Y41.717 E13.63637
G1 X108.595 Y41.634 E13.72357
G1 X109.415 Y41.591 E13.81096
G1 X110.062 Y41.586 E13.87982
G1 X110.89 Y41.617 E13.96801
G1 X111.708 Y41.689 E14.05541
G1 X112.517 Y41.8 E14.14232
G1 X113.331 Y41.953 E14.23047
G1 X114.139 Y42.149 E14.31897
G1 X114.928 Y42.381 E14.4065
G1 X115.697 Y42.649 E14.49317
G1 X116.475 Y42.967 E14.58262
G1 X117.214 Y43.312 E14.66943
G1 X117.948 Y43.701 E14.75784
G1 X118.651 Y44.119 E14.84489
G1 X119.334 Y44.571 E14.93206
G1 X120.004 Y45.066 E15.02072
G1 X120.637 Y45.585 E15.10784
G1 X121.25 Y46.141 E15.19593
G1 X121.829 Y46.719 E15.283
G1 X122.384 Y47.333 E15.37109
G1 X122.902 Y47.965 E15.45806
G1 X123.396 Y48.636 E15.54675
G1 X123.845 Y49.31 E15.63294
G1 X124.271 Y50.029 E15.72189
G1 X124.657 Y50.763 E15.81015
G1 X124.999 Y51.495 E15.89615
G1 X125.312 Y52.264 E15.98451
G1 X125.584 Y53.044 E16.07243
G1 X125.815 Y53.826 E16.15922
G1 X126.007 Y54.616 E16.24575
G1 X126.163 Y55.438 E16.3348
G1 X126.275 Y56.262 E16.4233
G1 X126.346 Y57.055 E16.50804
G1 X126.377 Y57.905 E16.59857
G1 X126.367 Y58.719 E16.68521
G1 X126.315 Y59.55 E16.77383
G1 X126.224 Y60.356 E16.86016
G1 X126.093 Y61.162 E16.94707
G1 X125.917 Y61.981 E17.03623
G1 X125.708 Y62.763 E17.12238
G1 X125.454 Y63.555 E17.2109
G1 X125.168 Y64.314 E17.29723
G1 X124.832 Y65.085 E17.38674
G1 X124.473 Y65.809 E17.47275
G1 X124.06 Y66.544 E17.56249
G1 X123.629 Y67.23 E17.64871
G1 X123.149 Y67.914 E17.73765
G1 X122.651 Y68.556 E17.82413
G1 X122.116 Y69.179 E17.91153
G1 X121.544 Y69.78 E17.99983
G1 X120.95 Y70.346 E18.08716
G1 X120.329 Y70.882 E18.17447
G1 X119.678 Y71.389 E18.26229
G1 X119.003 Y71.862 E18.35002
G1 X118.305 Y72.301 E18.43778
G1 X117.995 Y72.478 E18.47577
G1 X117.514 Y72.7 E18.53215
G1 X117.004 Y72.847 E18.58864
G1 X116.479 Y72.916 E18.645
G1 X115.948 Y72.905 E18.70153
G1 X115.426 Y72.814 E18.75793
G1 X114.923 Y72.646 E18.81437
G1 X114.451 Y72.405 E18.87077
G1 X114.02 Y72.095 E18.92728
G1 X113.952 Y72.031 E18.93722
G1 X113.219 Y72.226 E19.01795
G1 X112.598 Y72.359 E19.08554
G1 X112.059 Y72.452 E19.14376
G1 X111.175 Y72.556 E19.23849
G1 X110.343 Y72.607 E19.32721
G1 X109.638 Y72.614 E19.40225
G1 X108.967 Y72.589 E19.47371
G1 X108.19 Y72.519 E19.55675
G1 X107.418 Y72.407 E19.63977
G1 X106.677 Y72.262 E19.72013
G1 X105.938 Y72.075 E19.80127
G1 X105.218 Y71.853 E19.88146
G1 X104.602 Y71.63 E19.95118
G1 X103.92 Y71.345 E20.02985
G1 X103.251 Y71.024 E20.10883
G1 X102.612 Y70.676 E20.18627
G1 X102.027 Y70.319 E20.25921
G1 X101.411 Y69.902 E20.33838
G1 X100.82 Y69.456 E20.41719
G1 X100.27 Y68.995 E20.49357
G1 X99.733 Y68.497 E20.57152
G1 X99.243 Y67.996 E20.6461
G1 X98.767 Y67.459 E20.72248
G1 X98.302 Y66.878 E20.80168
G1 X97.901 Y66.324 E20.87447
G1 X97.48 Y65.677 E20.95663
G1 X97.126 Y65.063 E21.03206
G1 X96.779 Y64.389 E21.11275
G1 X96.498 Y63.768 E21.18529
G1 X96.232 Y63.092 E21.26261
G1 X96.006 Y62.425 E21.33756
G1 X95.808 Y61.733 E21.41417
G1 X95.647 Y61.034 E21.49052
G1 X95.51 Y60.275 E21.5726
G1 X95.419 Y59.54 E21.65143
G1 X95.369 Y58.889 E21.72092
G1 X95.347 Y58.146 E21.80003
G0 F6000 X95.987 Y58.155
G1 F1200 X96.003 Y57.4 E21.88041
G1 X96.05 Y56.786 E21.94595
G1 X96.14 Y56.046 E22.02529
G1 X96.254 Y55.394 E22.09574
G1 X96.408 Y54.699 E22.1715
G1 X96.584 Y54.072 E22.24081
G1 X96.811 Y53.388 E22.31752
G1 X96.973 Y52.966 E22.36563
G1 X96.603 Y52.504 E22.42862
G1 X96.376 Y52.082 E22.47962
G1 X96.222 Y51.628 E22.53065
G1 X96.146 Y51.154 E22.58174
G1 X96.149 Y50.675 E22.63272
G1 X96.231 Y50.202 E22.68382
G1 X96.391 Y49.75 E22.73485
G1 X96.658 Y49.28 E22.79238
G1 X97.17 Y48.558 E22.88659
G1 X97.664 Y47.933 E22.97138
G1 X98.184 Y47.342 E23.05516
G1 X98.734 Y46.774 E23.13931
G1 X99.315 Y46.231 E23.22395
G1 X99.921 Y45.719 E23.30839
G1 X100.556 Y45.236 E23.3933
G1 X101.199 Y44.796 E23.47623
G1 X101.879 Y44.375 E23.56135
G1 X102.571 Y43.996 E23.64532
G1 X103.289 Y43.647 E23.73029
G1 X104.016 Y43.339 E23.81432
G1 X104.763 Y43.065 E23.89901
G1 X105.518 Y42.831 E23.98314
G1 X106.275 Y42.636 E24.06634
G1 X107.066 Y42.472 E24.15231
G1 X107.849 Y42.354 E24.23659
G1 X108.632 Y42.273 E24.32037
G1 X109.42 Y42.231 E24.40436
G1 X110.067 Y42.226 E24.47322
G1 X110.862 Y42.257 E24.5579
G1 X111.649 Y42.326 E24.64199
G1 X112.567 Y42.457 E24.74068
G1 X113.356 Y42.614 E24.8263
G1 X114.122 Y42.807 E24.91038
G1 X114.872 Y43.036 E24.99384
G1 X115.63 Y43.309 E25.07959
G1 X116.355 Y43.613 E25.16326
G1 X117.074 Y43.957 E25.24809
G1 X117.766 Y44.333 E25.33192
G1 X118.439 Y44.742 E25.41573
G1 X119.1 Y45.19 E25.50072
G1 X119.731 Y45.666 E25.58485
G1 X120.339 Y46.174 E25.66917
G1 X120.917 Y46.708 E25.75293
G1 X121.476 Y47.277 E25.83782
G1 X121.997 Y47.865 E25.92144
G1 X122.497 Y48.488 E26.00646
G1 X122.954 Y49.122 E26.08964
G1 X123.392 Y49.793 E26.17492
G1 X123.79 Y50.481 E26.25952
G1 X124.147 Y51.176 E26.34268
G1 X124.477 Y51.9 E26.42736
G1 X124.769 Y52.639 E26.51193
G1 X125.02 Y53.381 E26.5953
G1 X125.237 Y54.144 E26.67973
G1 X125.414 Y54.907 E26.76309
G1 X125.557 Y55.702 E26.84907
G1 X125.655 Y56.474 E26.93189
G1 X125.718 Y57.266 E27.01645
G1 X125.739 Y58.061 E27.1011
G1 X125.721 Y58.859 E27.18605
G1 X125.664 Y59.64 E27.26939
G1 X125.568 Y60.425 E27.35357
G1 X125.434 Y61.201 E27.43738
G1 X125.259 Y61.979 E27.52225
G1 X125.049 Y62.732 E27.60546
G1 X124.798 Y63.489 E27.69034
G1 X124.513 Y64.225 E27.77434
G1 X124.188 Y64.95 E27.8589
G1 X123.829 Y65.657 E27.9433
G1 X123.435 Y66.342 E28.0274
G1 X123.003 Y67.015 E28.11252
G1 X122.547 Y67.652 E28.1959
G1 X122.055 Y68.273 E28.28022
G1 X121.534 Y68.867 E28.36431
G1 X120.983 Y69.436 E28.44861
G1 X120.404 Y69.976 E28.53288
G1 X119.802 Y70.485 E28.61679
G1 X119.17 Y70.967 E28.70138
G1 X118.517 Y71.416 E28.78573
G1 X117.847 Y71.829 E28.8695
G1 X117.247 Y72.116 E28.94028
G1 X116.784 Y72.238 E28.99124
G1 X116.306 Y72.281 E29.04232
G1 X115.828 Y72.244 E29.09335
G1 X115.362 Y72.129 E29.14444
G1 X114.922 Y71.938 E29.19549
G1 X114.52 Y71.676 E29.24656
G1 X114.186 Y71.372 E29.29463
G1 X114.123 Y71.305 E29.30442
G1 X113.609 Y71.465 E29.36171
G1 X112.936 Y71.636 E29.43562
G1 X112.489 Y71.728 E29.48419
G1 X111.779 Y71.845 E29.56078
G1 X110.941 Y71.934 E29.65047
G1 X110.165 Y71.972 E29.73316
G1 X109.499 Y71.971 E29.80404
G1 X108.846 Y71.939 E29.87363
G1 X108.095 Y71.863 E29.95397
G1 X107.371 Y71.749 E30.03197
G1 X106.653 Y71.599 E30.11004
G1 X105.973 Y71.419 E30.18491
G1 X105.431 Y71.249 E30.24536
G1 X104.846 Y71.038 E30.31155
G1 X104.194 Y70.766 E30.38674
G1 X103.554 Y70.459 E30.46229
G1 X102.942 Y70.128 E30.53634
G1 X102.383 Y69.787 E30.60604
G1 X101.793 Y69.388 E30.68184
G1 X101.228 Y68.964 E30.75703
G1 X100.702 Y68.523 E30.83008
G1 X100.188 Y68.048 E30.90457
G1 X99.72 Y67.569 E30.97585
G1 X99.264 Y67.055 E31.04898
G1 X98.818 Y66.5 E31.12476
G1 X98.434 Y65.97 E31.19442
G1 X98.033 Y65.355 E31.27256
G1 X97.693 Y64.766 E31.34494
G1 X97.36 Y64.121 E31.4222
G1 X97.092 Y63.529 E31.49136
G1 X96.837 Y62.884 E31.56518
G1 X96.62 Y62.245 E31.63701
G1 X96.431 Y61.585 E31.71008
G1 X96.276 Y60.916 E31.78317
G1 X96.145 Y60.192 E31.86147
G1 X96.057 Y59.488 E31.93699
G1 X96.009 Y58.867 E32.00328
G1 X95.987 Y58.155 E32.07909
G0 F6000 X96.627 Y58.165
G1 F1200 X96.642 Y57.446 E32.15564
G1 X96.686 Y56.86 E32.21818
G1 X96.771 Y56.153 E32.29397
G1 X96.879 Y55.528 E32.36148
G1 X97.025 Y54.869 E32.43332
G1 X97.193 Y54.27 E32.49953
G1 X97.408 Y53.618 E32.5726
G1 X97.658 Y52.976 E32.64593
G1 X97.721 Y52.834 E32.66246
G1 X97.368 Y52.45 E32.71798
G1 X97.113 Y52.113 E32.76295
G1 X96.925 Y51.734 E32.80798
G1 X96.812 Y51.326 E32.85304
G1 X96.777 Y50.905 E32.898
G1 X96.822 Y50.485 E32.94296
G1 X96.946 Y50.08 E32.98804
G1 X97.182 Y49.648 E33.04043
G1 X97.673 Y48.953 E33.131
G1 X98.147 Y48.354 E33.2123
G1 X98.646 Y47.785 E33.29285
G1 X99.173 Y47.239 E33.37362
G1 X99.73 Y46.718 E33.45479
G1 X100.312 Y46.226 E33.5359
G1 X100.919 Y45.763 E33.61716
G1 X101.538 Y45.338 E33.69707
G1 X102.189 Y44.935 E33.77856
G1 X102.854 Y44.57 E33.8593
G1 X103.541 Y44.235 E33.94065
G1 X104.239 Y43.939 E34.02134
G1 X104.955 Y43.676 E34.10252
G1 X105.68 Y43.45 E34.18335
G1 X106.408 Y43.262 E34.26338
G1 X107.165 Y43.105 E34.34566
G1 X107.918 Y42.99 E34.42673
G1 X108.669 Y42.912 E34.50709
G1 X109.425 Y42.871 E34.58767
G1 X110.072 Y42.866 E34.65654
G1 X110.835 Y42.896 E34.73781
G1 X111.696 Y42.976 E34.82984
G1 X112.446 Y43.086 E34.91052
G1 X113.202 Y43.235 E34.99253
G1 X113.938 Y43.42 E35.0733
G1 X114.659 Y43.64 E35.15353
G1 X115.385 Y43.9 E35.23561
G1 X116.081 Y44.192 E35.31594
G1 X116.771 Y44.521 E35.3973
G1 X117.436 Y44.882 E35.47783
G1 X118.083 Y45.274 E35.55835
G1 X118.717 Y45.702 E35.63976
G1 X119.323 Y46.159 E35.72055
G1 X119.906 Y46.646 E35.8014
G1 X120.463 Y47.159 E35.88199
G1 X120.999 Y47.704 E35.96335
G1 X121.5 Y48.268 E36.04364
G1 X121.979 Y48.864 E36.12502
G1 X122.42 Y49.474 E36.20514
G1 X122.839 Y50.116 E36.28673
G1 X123.222 Y50.775 E36.36785
G1 X123.566 Y51.444 E36.44792
G1 X123.883 Y52.137 E36.52903
G1 X124.163 Y52.846 E36.61016
G1 X124.405 Y53.56 E36.6904
G1 X124.615 Y54.291 E36.77135
G1 X124.785 Y55.023 E36.85133
G1 X124.922 Y55.785 E36.93373
G1 X125.017 Y56.528 E37.01345
G1 X125.078 Y57.285 E37.09428
G1 X125.099 Y58.05 E37.17574
G1 X125.083 Y58.814 E37.25707
G1 X125.028 Y59.566 E37.33732
G1 X124.937 Y60.319 E37.41805
G1 X124.809 Y61.063 E37.49839
G1 X124.641 Y61.81 E37.57989
G1 X124.441 Y62.533 E37.65973
G1 X124.201 Y63.26 E37.74121
G1 X123.928 Y63.966 E37.82177
G1 X123.616 Y64.663 E37.90305
G1 X123.273 Y65.34 E37.98382
G1 X122.894 Y65.999 E38.06474
G1 X122.482 Y66.644 E38.14619
G1 X122.043 Y67.257 E38.22644
G1 X121.572 Y67.853 E38.30729
G1 X121.073 Y68.424 E38.388
G1 X120.544 Y68.97 E38.46892
G1 X119.989 Y69.489 E38.54979
G1 X119.412 Y69.978 E38.63029
G1 X118.806 Y70.442 E38.71152
G1 X118.179 Y70.873 E38.7925
G1 X117.536 Y71.269 E38.87287
G1 X116.986 Y71.529 E38.93762
G1 X116.574 Y71.622 E38.98258
G1 X116.152 Y71.637 E39.02752
G1 X115.734 Y71.572 E39.07254
G1 X115.336 Y71.429 E39.11756
G1 X114.971 Y71.215 E39.16259
G1 X114.652 Y70.934 E39.20783
G1 X114.308 Y70.568 E39.26129
G1 X113.573 Y70.809 E39.34362
G1 X112.899 Y70.987 E39.41781
G1 X112.38 Y71.097 E39.47428
G1 X111.708 Y71.209 E39.54679
G1 X110.906 Y71.295 E39.63264
G1 X110.162 Y71.332 E39.71192
G1 X109.527 Y71.332 E39.7795
G1 X108.907 Y71.302 E39.84557
G1 X108.191 Y71.23 E39.92216
G1 X107.498 Y71.122 E39.99681
