;FLAVOR:Marlin
;TIME:4583
;Filament used: 3.23075m
;Layer height: 0.2
;MINX:69.612
;MINY:71.823
;MINZ:0.4
;MAXX:156.563
;MAXY:130.799
;MAXZ:16
;Generated with Cura_SteamEngine 5.0.0
M140 S75
M105
M190 S75
M104 S220
M105
M109 S220
M82 ;absolute extrusion mode
; Ender 3 Custom Start G-code
G92 E0 ; Reset Extruder
G28 ; Home all axes
G1 Z2.0 F3000 ; Move Z Axis up little to prevent scratching of Heat Bed
G1 X0.1 Y20 Z0.3 F5000.0 ; Move to start position
G1 X0.1 Y200.0 Z0.3 F1500.0 E15 ; Draw the first line
G1 X0.4 Y200.0 Z0.3 F5000.0 ; Move to side a little
G1 X0.4 Y20 Z0.3 F1500.0 E30 ; Draw the second line
G92 E0 ; Reset Extruder
G1 Z2.0 F3000 ; Move Z Axis up little to prevent scratching of Heat Bed
G1 X5 Y20 Z0.3 F5000.0 ; Move over to prevent blob squish
G92 E0
G92 E0
G1 F1500 E-6.5
;LAYER_COUNT:79
;LAYER:0
M107 P2
G0 F6000 X72.875 Y85.324 Z0.4
G0 X69.613 Y93.092
;TYPE:SKIRT
G1 F1500 E0
G1 F1200 X69.614 Y92.708 E0.04598
G1 X69.683 Y91.661 E0.17162
G1 X69.711 Y91.446 E0.19758
G1 X69.95 Y90.278 E0.34033
G1 X70.053 Y89.911 E0.38597
G1 X70.423 Y88.867 E0.51859
G1 X70.505 Y88.677 E0.54337
G1 X71.041 Y87.641 E0.68303
G1 X71.242 Y87.312 E0.7292
G1 X71.895 Y86.391 E0.86438
G1 X72.051 Y86.2 E0.89391
G1 X72.69 Y85.504 E1.00704
G1 X72.875 Y85.324 E1.03795
G1 X73.681 Y84.634 E1.16499
G1 X73.929 Y84.448 E1.20211
G1 X74.565 Y84.016 E1.29417
G1 X74.703 Y83.931 E1.31357
G1 X75.205 Y83.449 E1.3969
G1 X75.844 Y82.946 E1.49427
G1 X76.53 Y82.508 E1.59173
G1 X77.255 Y82.139 E1.68913
G1 X78.013 Y81.843 E1.78657
G1 X78.796 Y81.623 E1.88395
G1 X79.597 Y81.481 E1.98136
G1 X80.706 Y81.415 E2.11438
G1 X81.519 Y81.455 E2.21184
G1 X82.323 Y81.575 E2.30918
G1 X82.716 Y81.673 E2.35768
G1 X84.747 Y81.673 E2.60086
G1 X85.079 Y81.587 E2.64192
G1 X85.883 Y81.462 E2.73935
G1 X86.695 Y81.416 E2.83673
G1 X87.508 Y81.45 E2.93416
G1 X88.314 Y81.564 E3.03163
G1 X89.104 Y81.756 E3.12898
G1 X89.872 Y82.025 E3.22641
G1 X90.61 Y82.368 E3.32385
G1 X91.311 Y82.782 E3.42133
G1 X91.967 Y83.262 E3.51866
G1 X92.039 Y83.326 E3.5302
G1 X98.293 Y83.327 E4.27903
G1 X99.105 Y83.367 E4.37637
G1 X99.91 Y83.487 E4.47383
G1 X100.699 Y83.685 E4.57123
G1 X101.656 Y84.041 E4.69349
G1 X101.848 Y84.126 E4.71863
G1 X102.532 Y84.31 E4.80344
G1 X102.88 Y84.441 E4.84796
G1 X103.148 Y84.412 E4.88024
G1 X103.634 Y84.396 E4.93846
G1 X104.409 Y84.394 E5.03126
G1 X105.221 Y84.432 E5.12859
G1 X105.542 Y84.479 E5.16744
G1 X106.208 Y84.41 E5.24761
G1 X106.276 Y83.655 E5.33838
G1 X106.388 Y82.849 E5.43581
G1 X106.539 Y82.201 E5.51548
G1 X106.788 Y81.297 E5.62775
G1 X107.043 Y80.524 E5.72521
G1 X107.312 Y79.902 E5.80636
G1 X107.722 Y79.051 E5.91946
G1 X108.11 Y78.336 E6.01687
G1 X108.487 Y77.772 E6.09809
G1 X109.041 Y77.011 E6.2108
G1 X109.552 Y76.377 E6.3083
G1 X110.005 Y75.907 E6.38646
G1 X110.682 Y75.258 E6.49876
G1 X111.296 Y74.724 E6.59619
G1 X111.852 Y74.324 E6.6782
G1 X112.64 Y73.804 E6.79125
G1 X113.34 Y73.39 E6.88862
G1 X113.95 Y73.099 E6.96955
G1 X114.817 Y72.729 E7.08242
G1 X115.58 Y72.447 E7.17982
G1 X116.228 Y72.272 E7.26018
G1 X117.141 Y72.064 E7.3723
G1 X117.942 Y71.922 E7.46971
G1 X118.602 Y71.866 E7.54902
G1 X119.544 Y71.823 E7.66193
G1 X120.358 Y71.825 E7.75939
G1 X121.038 Y71.889 E7.84117
G1 X121.972 Y72.016 E7.95404
G1 X122.771 Y72.166 E8.05138
G1 X123.419 Y72.348 E8.13197
G1 X124.313 Y72.639 E8.24454
G1 X125.073 Y72.928 E8.3419
G1 X125.672 Y73.22 E8.42169
G1 X126.503 Y73.667 E8.53467
G1 X127.2 Y74.087 E8.63211
G1 X127.738 Y74.481 E8.71195
G1 X128.474 Y75.067 E8.8246
G1 X129.085 Y75.605 E8.92208
G1 X129.554 Y76.099 E9.00364
G1 X130.173 Y76.808 E9.11634
G1 X130.678 Y77.447 E9.21386
G1 X131.048 Y78.013 E9.29482
G1 X131.528 Y78.818 E9.40705
G1 X131.871 Y79.463 E9.49452
G1 X132.581 Y79.389 E9.57999
G1 X133.053 Y79.357 E9.63664
G1 X134.271 Y79.315 E9.78256
G1 X134.783 Y79.316 E9.84387
G1 X135.252 Y79.33 E9.90005
G1 X136.121 Y79.381 E10.00428
G1 X136.987 Y79.462 E10.10842
G1 X137.453 Y79.523 E10.1647
G1 X138.315 Y79.661 E10.26922
G1 X139.157 Y79.825 E10.37194
G1 X139.633 Y79.936 E10.43046
G1 X140.796 Y80.252 E10.57476
G1 X141.284 Y80.403 E10.63593
G1 X141.74 Y80.559 E10.69363
G1 X142.557 Y80.865 E10.79809
G1 X143.351 Y81.193 E10.90096
G1 X143.78 Y81.389 E10.95743
G1 X144.562 Y81.774 E11.0618
G1 X145.332 Y82.187 E11.16642
G1 X145.736 Y82.424 E11.2225
G1 X146.475 Y82.885 E11.32679
G1 X147.2 Y83.373 E11.43144
G1 X147.904 Y83.893 E11.53623
G1 X148.537 Y84.397 E11.63312
G1 X149.219 Y84.983 E11.74078
G1 X149.744 Y85.473 E11.82677
G1 X150.164 Y85.886 E11.8973
G1 X150.785 Y86.537 E12.00502
G1 X151.264 Y87.082 E12.0919
G1 X151.641 Y87.536 E12.16256
G1 X151.96 Y87.938 E12.22401
G1 X152.241 Y88.314 E12.28021
G1 X152.937 Y89.313 E12.426
G1 X153.214 Y89.743 E12.48724
G1 X153.459 Y90.149 E12.54402
G1 X153.888 Y90.907 E12.64831
G1 X154.294 Y91.686 E12.75349
G1 X154.668 Y92.492 E12.85988
G1 X154.973 Y93.215 E12.95384
G1 X155.16 Y93.692 E13.01519
G1 X155.324 Y94.15 E13.07343
G1 X155.594 Y94.979 E13.17783
G1 X155.836 Y95.819 E13.2825
G1 X155.945 Y96.257 E13.33654
G1 X156.132 Y97.107 E13.44075
G1 X156.29 Y97.966 E13.54533
G1 X156.358 Y98.439 E13.60255
G1 X156.458 Y99.304 E13.70681
G1 X156.528 Y100.166 E13.81036
G1 X156.549 Y100.632 E13.86622
G1 X156.563 Y101.503 E13.97052
G1 X156.547 Y102.374 E14.07483
G1 X156.521 Y102.84 E14.13071
G1 X156.412 Y104.055 E14.27678
G1 X156.348 Y104.561 E14.33785
G1 X156.274 Y105.031 E14.39482
G1 X156.115 Y105.889 E14.4993
G1 X156.039 Y106.255 E14.54406
G1 X155.923 Y106.754 E14.6054
G1 X155.809 Y107.19 E14.65936
G1 X155.566 Y108.026 E14.7636
G1 X155.295 Y108.852 E14.86769
G1 X155.132 Y109.293 E14.92399
G1 X154.807 Y110.1 E15.02815
G1 X154.448 Y110.907 E15.13391
G1 X154.254 Y111.304 E15.18682
G1 X153.851 Y112.076 E15.29109
G1 X153.408 Y112.854 E15.39829
G1 X153.167 Y113.243 E15.45308
G1 X152.688 Y113.97 E15.55733
G1 X152.19 Y114.673 E15.66048
G1 X151.957 Y114.981 E15.70673
G1 X151.495 Y115.557 E15.79514
G1 X151.132 Y115.985 E15.86233
G1 X150.793 Y116.369 E15.92367
G1 X150.513 Y116.67 E15.97289
G1 X149.912 Y117.277 E16.07517
G1 X149.277 Y117.876 E16.17969
G1 X148.943 Y118.174 E16.23329
G1 X148.366 Y118.658 E16.32346
G1 X147.905 Y119.021 E16.39372
G1 X147.496 Y119.329 E16.45502
G1 X147.128 Y119.591 E16.50911
G1 X146.405 Y120.076 E16.61336
G1 X146.093 Y120.276 E16.65773
G1 X145.657 Y120.541 E16.71882
G1 X145.248 Y120.774 E16.77518
G1 X144.478 Y121.184 E16.87964
G1 X143.697 Y121.565 E16.98369
G1 X143.281 Y121.751 E17.03825
G1 X142.476 Y122.083 E17.14251
G1 X141.628 Y122.396 E17.25074
G1 X141.207 Y122.534 E17.30379
G1 X140.374 Y122.783 E17.40789
G1 X139.52 Y123.006 E17.51358
G1 X139.093 Y123.101 E17.56595
G1 X138.237 Y123.268 E17.67038
G1 X137.353 Y123.407 E17.77753
G1 X136.466 Y123.505 E17.88438
G1 X135.682 Y123.564 E17.97852
G1 X135.17 Y123.589 E18.0399
G1 X134.69 Y123.599 E18.09738
G1 X133.821 Y123.591 E18.20144
G1 X132.949 Y123.552 E18.30595
G1 X132.069 Y123.474 E18.41174
G1 X131.483 Y123.404 E18.4824
G1 X131.402 Y123.572 E18.50473
G1 X131.013 Y124.287 E18.60219
G1 X130.644 Y124.84 E18.6818
G1 X130.09 Y125.603 E18.7947
G1 X129.58 Y126.237 E18.89212
G1 X129.115 Y126.72 E18.9724
G1 X128.438 Y127.368 E19.08461
G1 X127.824 Y127.901 E19.18196
G1 X127.28 Y128.293 E19.26225
G1 X126.492 Y128.814 E19.37536
G1 X125.792 Y129.229 E19.4728
G1 X125.175 Y129.523 E19.55464
G1 X124.308 Y129.893 E19.6675
G1 X123.545 Y130.175 E19.7649
G1 X122.895 Y130.351 E19.84554
G1 X121.981 Y130.559 E19.95777
G1 X121.18 Y130.7 E20.05516
G1 X120.513 Y130.757 E20.13531
G1 X119.572 Y130.799 E20.2481
G1 X118.759 Y130.795 E20.34544
G1 X118.096 Y130.733 E20.42517
G1 X117.162 Y130.607 E20.53802
G1 X116.362 Y130.458 E20.63546
G1 X115.706 Y130.274 E20.71704
G1 X114.812 Y129.983 E20.82961
G1 X114.052 Y129.694 E20.92697
G1 X113.453 Y129.402 E21.00676
G1 X112.622 Y128.955 E21.11974
G1 X111.925 Y128.535 E21.21718
G1 X111.381 Y128.136 E21.29795
G1 X110.645 Y127.549 E21.41068
G1 X110.035 Y127.011 E21.50806
G1 X109.574 Y126.526 E21.58818
G1 X108.955 Y125.818 E21.70079
G1 X108.451 Y125.18 E21.79814
G1 X108.077 Y124.609 E21.87987
G1 X107.597 Y123.804 E21.99209
G1 X107.215 Y123.085 E22.08958
G1 X106.955 Y122.468 E22.16975
G1 X106.623 Y121.582 E22.28304
G1 X106.376 Y120.807 E22.38043
G1 X106.23 Y120.155 E22.46044
G1 X106.062 Y119.229 E22.57312
G1 X105.956 Y118.422 E22.67058
G1 X105.94 Y118.028 E22.71779
G1 X105.763 Y118.049 E22.73914
G1 X105.217 Y118.067 E22.80455
G1 X104.456 Y118.067 E22.89567
G1 X103.643 Y118.027 E22.99313
G1 X103.341 Y117.982 E23.02969
G1 X102.763 Y118.049 E23.09936
G1 X102.217 Y118.067 E23.16477
G1 X101.456 Y118.067 E23.25589
G1 X100.663 Y118.028 E23.35096
G1 X100.52 Y118.086 E23.36944
G1 X99.871 Y118.277 E23.45044
G1 X99.026 Y118.636 E23.56037
G1 X98.249 Y118.875 E23.65771
G1 X97.451 Y119.036 E23.75518
G1 X96.572 Y119.122 E23.86093
G1 X96.046 Y119.137 E23.92394
G1 X90.557 Y119.134 E24.58117
G1 X90.105 Y119.543 E24.65416
G1 X89.451 Y120.027 E24.75158
G1 X88.753 Y120.444 E24.84894
G1 X88.017 Y120.791 E24.94637
G1 X87.25 Y121.064 E25.04385
G1 X86.461 Y121.26 E25.14119
G1 X85.656 Y121.378 E25.23861
G1 X84.86 Y121.416 E25.33403
G1 X82.544 Y121.416 E25.61134
G1 X81.731 Y121.376 E25.7088
G1 X80.927 Y121.256 E25.80614
G1 X80.137 Y121.059 E25.90362
G1 X79.371 Y120.784 E26.00107
G1 X78.636 Y120.436 E26.09845
G1 X77.939 Y120.017 E26.19582
G1 X77.285 Y119.532 E26.29331
G1 X77.188 Y119.444 E26.30899
G1 X76.735 Y119.349 E26.36441
G1 X75.959 Y119.106 E26.46178
G1 X75.21 Y118.787 E26.55926
G1 X74.496 Y118.397 E26.65667
G1 X73.76 Y117.889 E26.76375
G1 X73.584 Y117.753 E26.79038
G1 X72.757 Y117.02 E26.9227
G1 X72.511 Y116.771 E26.96461
G1 X71.968 Y116.165 E27.06204
G1 X71.656 Y115.754 E27.12383
G1 X71.436 Y115.445 E27.16924
G1 X70.997 Y114.76 E27.26666
G1 X70.712 Y114.218 E27.33998
G1 X70.555 Y113.89 E27.38352
G1 X70.241 Y113.14 E27.48088
G1 X70.047 Y112.536 E27.55684
G1 X69.949 Y112.184 E27.60059
G1 X69.722 Y111.08 E27.73554
G1 X69.69 Y110.845 E27.76394
G1 X69.614 Y109.77 E27.89298
G1 X69.612 Y109.377 E27.94004
G1 X69.648 Y108.564 E28.03748
G1 X69.763 Y107.778 E28.13259
G1 X69.859 Y106.779 E28.25276
G1 X69.977 Y105.974 E28.35018
G1 X70.173 Y105.185 E28.44752
G1 X70.552 Y104.171 E28.57714
G1 X70.666 Y103.918 E28.61036
G1 X71.036 Y103.194 E28.70772
G1 X71.476 Y102.509 E28.8052
G1 X71.924 Y101.934 E28.89248
G1 X72.469 Y101.33 E28.98989
G1 X72.574 Y101.235 E29.00684
G1 X71.999 Y100.622 E29.10748
G1 X71.535 Y100.018 E29.19868
G1 X71.36 Y99.767 E29.23531
G1 X70.928 Y99.077 E29.33279
G1 X70.566 Y98.349 E29.43014
G1 X70.251 Y97.509 E29.53756
G1 X70.198 Y97.34 E29.55876
G1 X69.993 Y96.552 E29.65626
G1 X69.858 Y95.662 E29.76404
G1 X69.763 Y94.683 E29.88181
G1 X69.641 Y93.788 E29.98997
G1 X69.613 Y93.092 E30.07337
G0 F6000 X70.333 Y93.094
G1 F1200 X70.334 Y92.71 E30.11935
G1 X70.397 Y91.754 E30.23407
G1 X70.425 Y91.539 E30.26003
G1 X70.643 Y90.472 E30.39043
G1 X70.746 Y90.105 E30.43607
G1 X71.084 Y89.152 E30.55714
G1 X71.166 Y88.962 E30.58192
G1 X71.656 Y88.017 E30.70938
G1 X71.857 Y87.688 E30.75554
G1 X72.453 Y86.847 E30.87896
G1 X72.609 Y86.656 E30.90849
G1 X73.192 Y86.02 E31.0118
G1 X73.377 Y85.84 E31.0427
G1 X74.113 Y85.21 E31.1587
G1 X74.361 Y85.024 E31.19582
G1 X74.941 Y84.629 E31.27985
G1 X75.168 Y84.49 E31.31172
G1 X75.286 Y84.358 E31.33292
G1 X75.863 Y83.837 E31.426
G1 X76.49 Y83.377 E31.51911
G1 X77.16 Y82.984 E31.61212
G1 X77.868 Y82.662 E31.70525
G1 X78.605 Y82.414 E31.79836
G1 X79.364 Y82.244 E31.89149
G1 X80.136 Y82.152 E31.98458
G1 X80.706 Y82.135 E32.05286
G1 X81.482 Y82.175 E32.1459
G1 X82.251 Y82.294 E32.23907
G1 X82.626 Y82.393 E32.28551
G1 X84.831 Y82.393 E32.54953
G1 X85.394 Y82.259 E32.61882
G1 X86.165 Y82.159 E32.71191
G1 X86.942 Y82.138 E32.80498
G1 X87.718 Y82.198 E32.89818
G1 X88.483 Y82.336 E32.99125
G1 X89.229 Y82.552 E33.08425
G1 X89.95 Y82.844 E33.17739
G1 X90.637 Y83.209 E33.27053
G1 X91.282 Y83.641 E33.36349
G1 X91.77 Y84.046 E33.43942
G1 X98.293 Y84.047 E34.22046
G1 X99.069 Y84.087 E34.3135
G1 X99.837 Y84.207 E34.40657
G1 X100.589 Y84.404 E34.49965
G1 X101.363 Y84.699 E34.59883
G1 X101.62 Y84.813 E34.6325
G1 X101.729 Y84.833 E34.64577
G1 X102.475 Y85.05 E34.73879
G1 X102.787 Y85.177 E34.77913
G1 X103.635 Y85.116 E34.88092
G1 X104.41 Y85.114 E34.97372
G1 X105.187 Y85.152 E35.06687
G1 X105.524 Y85.204 E35.1077
G1 X105.59 Y85.191 E35.11575
G1 X106.635 Y85.116 E35.2412
G1 X106.885 Y85.115 E35.27113
G1 X106.908 Y84.661 E35.32556
G1 X106.993 Y83.72 E35.43869
G1 X107.102 Y82.95 E35.53181
G1 X107.233 Y82.392 E35.60044
G1 X107.482 Y81.488 E35.71271
G1 X107.727 Y80.751 E35.8057
G1 X107.96 Y80.215 E35.87568
G1 X108.37 Y79.364 E35.98879
G1 X108.743 Y78.682 E36.08187
G1 X109.069 Y78.196 E36.15194
G1 X109.623 Y77.435 E36.26464
G1 X110.112 Y76.83 E36.35779
G1 X110.503 Y76.427 E36.42502
G1 X111.18 Y75.778 E36.53731
G1 X111.768 Y75.269 E36.63043
G1 X112.248 Y74.925 E36.70114
G1 X113.036 Y74.405 E36.81419
G1 X113.706 Y74.011 E36.90725
G1 X114.233 Y73.762 E36.97704
G1 X115.1 Y73.392 E37.08991
G1 X115.829 Y73.124 E37.18291
G1 X116.388 Y72.974 E37.25221
G1 X117.301 Y72.766 E37.36433
G1 X118.067 Y72.632 E37.45744
G1 X118.635 Y72.585 E37.52569
G1 X119.577 Y72.542 E37.6386
G1 X120.355 Y72.546 E37.73175
G1 X120.941 Y72.603 E37.80225
G1 X121.875 Y72.73 E37.91511
G1 X122.639 Y72.874 E38.0082
G1 X123.196 Y73.032 E38.07753
G1 X124.09 Y73.323 E38.1901
G1 X124.816 Y73.602 E38.28323
G1 X125.331 Y73.854 E38.35188
G1 X126.162 Y74.301 E38.46486
G1 X126.827 Y74.704 E38.55796
G1 X127.29 Y75.045 E38.62682
G1 X128.026 Y75.631 E38.73946
G1 X128.608 Y76.146 E38.83251
G1 X129.012 Y76.573 E38.9029
G1 X129.631 Y77.282 E39.01559
G1 X130.111 Y77.893 E39.10863
G1 X130.429 Y78.382 E39.17847
G1 X130.909 Y79.187 E39.29069
G1 X131.273 Y79.875 E39.38389
G1 X131.43 Y80.249 E39.43246
G1 X132.14 Y80.156 E39.5182
G1 X132.651 Y80.106 E39.57968
G1 X133.082 Y80.076 E39.63141
G1 X134.27 Y80.035 E39.77374
G1 X134.782 Y80.036 E39.83504
G1 X135.21 Y80.049 E39.88631
G1 X136.406 Y80.126 E40.02982
G1 X136.914 Y80.178 E40.09096
G1 X137.339 Y80.234 E40.14229
G1 X138.511 Y80.428 E40.28453
G1 X139.013 Y80.53 E40.34586
G1 X139.448 Y80.632 E40.39936
G1 X140.583 Y80.94 E40.54018
G1 X141.071 Y81.091 E40.60134
G1 X141.488 Y81.233 E40.65409
G1 X142.601 Y81.657 E40.7967
G1 X143.071 Y81.856 E40.85781
G1 X143.462 Y82.035 E40.9093
G1 X144.244 Y82.42 E41.01367
G1 X144.987 Y82.819 E41.11465
G1 X145.355 Y83.035 E41.16574
G1 X146.372 Y83.677 E41.30975
G1 X147.062 Y84.16 E41.41059
G1 X147.633 Y84.593 E41.4964
G1 X148.073 Y84.948 E41.56409
G1 X148.73 Y85.512 E41.66777
G1 X149.242 Y85.989 E41.75156
G1 X149.648 Y86.388 E41.81972
G1 X150.246 Y87.014 E41.92337
G1 X150.713 Y87.545 E42.00805
G1 X151.077 Y87.984 E42.07633
G1 X151.396 Y88.386 E42.13778
G1 X151.653 Y88.729 E42.1891
G1 X152.155 Y89.441 E42.29341
G1 X152.608 Y90.133 E42.39244
G1 X152.832 Y90.503 E42.44423
G1 X153.261 Y91.261 E42.54852
G1 X153.652 Y92.013 E42.65
G1 X154.012 Y92.789 E42.75243
G1 X154.302 Y93.478 E42.84194
G1 X154.489 Y93.955 E42.90328
G1 X154.639 Y94.373 E42.95646
G1 X155.005 Y95.519 E43.1005
G1 X155.142 Y96.012 E43.16177
G1 X155.241 Y96.412 E43.21111
G1 X155.428 Y97.262 E43.31532
G1 X155.58 Y98.09 E43.41612
G1 X155.643 Y98.522 E43.46839
G1 X155.743 Y99.387 E43.57266
G1 X155.81 Y100.218 E43.67248
G1 X155.829 Y100.644 E43.72354
G1 X155.843 Y101.515 E43.82784
G1 X155.827 Y102.354 E43.92832
G1 X155.803 Y102.78 E43.97941
G1 X155.697 Y103.965 E44.12186
G1 X155.633 Y104.471 E44.18293
G1 X155.566 Y104.9 E44.23492
G1 X155.338 Y106.092 E44.38023
G1 X155.222 Y106.591 E44.44158
G1 X155.118 Y106.989 E44.49083
G1 X154.875 Y107.825 E44.59507
G1 X154.613 Y108.622 E44.69553
G1 X154.464 Y109.024 E44.74686
G1 X154.139 Y109.831 E44.85103
G1 X153.793 Y110.608 E44.95287
G1 X153.616 Y110.97 E45.00112
G1 X153.213 Y111.742 E45.10539
G1 X152.786 Y112.492 E45.20873
G1 X152.566 Y112.846 E45.25864
G1 X151.906 Y113.836 E45.4011
G1 X151.393 Y114.533 E45.50473
G1 X150.944 Y115.093 E45.59067
G1 X150.592 Y115.508 E45.65583
G1 X149.998 Y116.168 E45.76215
G1 X149.418 Y116.753 E45.86079
G1 X148.783 Y117.352 E45.96531
G1 X148.478 Y117.624 E46.01424
G1 X147.917 Y118.095 E46.10195
G1 X147.472 Y118.446 E46.16981
