;FLAVOR:Marlin
;TIME:3672
;Filament used: 2.52772m
;Layer height: 0.2
;MINX:88.09
;MINY:34.287
;MINZ:0.4
;MAXX:131.91
;MAXY:72.607
;MAXZ:23
;Generated with Cura_SteamEngine 5.0.0
M140 S70
M105
M190 S70
M104 S215
M105
M109 S215
M82 ;absolute extrusion mode
; Ender 3 Custom Start G-code
G92 E0 ; Reset Extruder
G28 ; Home all axes
G1 Z2.0 F3000 ; Move Z Axis up little to prevent scratching of Heat Bed
G1 X0.1 Y20 Z0.3 F5000.0 ; Move to start position
G1 X0.1 Y200.0 Z0.3 F1500.0 E15 ; Draw the first line
G1 X0.4 Y200.0 Z0.3 F5000.0 ; Move to side a little
G1 X0.4 Y20 Z0.3 F1500.0 E30 ; Draw the second line
G92 E0 ; Reset Extruder
G1 Z2.0 F3000 ; Move Z Axis up little to prevent scratching of Heat Bed
G1 X5 Y20 Z0.3 F5000.0 ; Move over to prevent blob squish
G92 E0
G92 E0
G1 F1500 E-6.5
;LAYER_COUNT:114
;LAYER:0
M107 P2
G0 F6000 X88.445 Y36.766 Z0.4
G0 X88.09 Y38.447
;TYPE:SKIRT
G1 F1500 E0
G1 F1200 X88.13 Y37.872 E0.06135
G1 X88.249 Y37.308 E0.1227
G1 X88.445 Y36.766 E0.18404
G1 X88.714 Y36.256 E0.24541
G1 X89.051 Y35.788 E0.30679
G1 X89.449 Y35.371 E0.36814
G1 X89.902 Y35.013 E0.42959
G1 X90.399 Y34.722 E0.49089
G1 X90.932 Y34.501 E0.5523
G1 X91.49 Y34.357 E0.61364
G1 X92.25 Y34.287 E0.69487
G1 X127.75 Y34.287 E4.47322
G1 X128.325 Y34.327 E4.53457
G1 X128.889 Y34.446 E4.59591
G1 X129.431 Y34.642 E4.65726
G1 X129.941 Y34.911 E4.71863
G1 X130.409 Y35.248 E4.78001
G1 X130.826 Y35.646 E4.84136
G1 X131.184 Y36.099 E4.90281
G1 X131.475 Y36.596 E4.96411
G1 X131.696 Y37.129 E5.02552
G1 X131.84 Y37.687 E5.08686
G1 X131.91 Y38.447 E5.16809
G1 X131.91 Y68.447 E8.36106
G1 X131.87 Y69.022 E8.42241
G1 X131.751 Y69.586 E8.48376
G1 X131.555 Y70.128 E8.5451
G1 X131.286 Y70.638 E8.60647
G1 X130.949 Y71.106 E8.66785
G1 X130.551 Y71.523 E8.7292
G1 X130.098 Y71.881 E8.79065
G1 X129.601 Y72.172 E8.85195
G1 X129.068 Y72.393 E8.91336
G1 X128.51 Y72.537 E8.9747
G1 X127.75 Y72.607 E9.05593
G1 X92.25 Y72.607 E12.83428
G1 X91.675 Y72.567 E12.89562
G1 X91.111 Y72.448 E12.95697
G1 X90.569 Y72.252 E13.01832
G1 X90.059 Y71.983 E13.07968
G1 X89.591 Y71.646 E13.14107
G1 X89.174 Y71.248 E13.20242
G1 X88.816 Y70.795 E13.26387
G1 X88.525 Y70.298 E13.32517
G1 X88.304 Y69.765 E13.38658
G1 X88.16 Y69.207 E13.44791
G1 X88.09 Y68.447 E13.52915
G1 X88.09 Y38.447 E16.72212
G0 F6000 X88.73 Y38.447
G1 F1200 X88.77 Y37.918 E16.77858
G1 X88.889 Y37.401 E16.83505
G1 X89.084 Y36.908 E16.89147
G1 X89.351 Y36.45 E16.9479
G1 X89.684 Y36.037 E17.00436
G1 X90.075 Y35.679 E17.06079
G1 X90.515 Y35.384 E17.11717
G1 X90.995 Y35.158 E17.17363
G1 X91.504 Y35.007 E17.23014
G1 X92.25 Y34.927 E17.31
G1 X127.75 Y34.927 E21.08835
G1 X128.279 Y34.967 E21.14481
G1 X128.796 Y35.086 E21.20128
G1 X129.289 Y35.281 E21.2577
G1 X129.747 Y35.548 E21.31413
G1 X130.16 Y35.881 E21.37059
G1 X130.518 Y36.272 E21.42702
G1 X130.813 Y36.712 E21.4834
G1 X131.039 Y37.192 E21.53986
G1 X131.19 Y37.701 E21.59637
G1 X131.27 Y38.447 E21.67623
G1 X131.27 Y68.447 E24.8692
G1 X131.23 Y68.976 E24.92566
G1 X131.111 Y69.493 E24.98213
G1 X130.916 Y69.986 E25.03855
G1 X130.649 Y70.444 E25.09498
G1 X130.316 Y70.857 E25.15144
G1 X129.925 Y71.215 E25.20787
G1 X129.485 Y71.51 E25.26425
G1 X129.005 Y71.736 E25.32072
G1 X128.496 Y71.887 E25.37722
G1 X127.75 Y71.967 E25.45708
G1 X92.25 Y71.967 E29.23543
G1 X91.721 Y71.927 E29.29189
G1 X91.204 Y71.808 E29.34836
G1 X90.711 Y71.613 E29.40478
G1 X90.253 Y71.346 E29.46121
G1 X89.84 Y71.013 E29.51767
G1 X89.482 Y70.622 E29.5741
G1 X89.187 Y70.182 E29.63048
G1 X88.961 Y69.702 E29.68694
G1 X88.81 Y69.193 E29.74345
G1 X88.73 Y68.447 E29.82331
G1 X88.73 Y38.447 E33.01628
G0 F6000 X89.37 Y38.447
G1 F1200 X89.41 Y37.969 E33.06733
G1 X89.529 Y37.504 E33.11842
G1 X89.723 Y37.066 E33.1694
G1 X89.987 Y36.666 E33.22041
G1 X90.314 Y36.315 E33.27147
G1 X90.695 Y36.023 E33.32256
G1 X91.118 Y35.799 E33.3735
G1 X91.574 Y35.648 E33.42463
G1 X92.25 Y35.567 E33.49709
G1 X127.75 Y35.567 E37.27544
G1 X128.228 Y35.607 E37.3265
G1 X128.693 Y35.726 E37.37758
G1 X129.131 Y35.92 E37.42857
G1 X129.531 Y36.184 E37.47958
G1 X129.882 Y36.511 E37.53063
G1 X130.174 Y36.892 E37.58172
G1 X130.398 Y37.315 E37.63267
G1 X130.549 Y37.771 E37.68379
G1 X130.63 Y38.447 E37.75626
G1 X130.63 Y68.447 E40.94923
G1 X130.59 Y68.925 E41.00028
G1 X130.471 Y69.39 E41.05137
G1 X130.277 Y69.828 E41.10235
G1 X130.013 Y70.228 E41.15336
G1 X129.686 Y70.579 E41.20442
G1 X129.305 Y70.871 E41.25551
G1 X128.882 Y71.095 E41.30645
G1 X128.426 Y71.246 E41.35758
G1 X127.75 Y71.327 E41.43004
G1 X92.25 Y71.327 E45.20839
G1 X91.772 Y71.287 E45.25945
G1 X91.307 Y71.168 E45.31053
G1 X90.869 Y70.974 E45.36152
G1 X90.469 Y70.71 E45.41253
G1 X90.118 Y70.383 E45.46359
G1 X89.826 Y70.002 E45.51468
G1 X89.602 Y69.579 E45.56562
G1 X89.451 Y69.123 E45.61674
G1 X89.37 Y68.447 E45.68921
G1 X89.37 Y38.447 E48.88218
G0 F6000 X90.01 Y38.447
G1 F1200 X90.05 Y38.026 E48.92719
G1 X90.168 Y37.62 E48.97219
G1 X90.361 Y37.244 E49.01717
G1 X90.621 Y36.91 E49.06222
G1 X90.938 Y36.631 E49.10717
G1 X91.303 Y36.417 E49.1522
G1 X91.701 Y36.275 E49.19718
G1 X92.25 Y36.207 E49.25605
G1 X127.75 Y36.207 E53.0344
G1 X128.171 Y36.247 E53.07941
G1 X128.577 Y36.365 E53.12441
G1 X128.953 Y36.558 E53.1694
G1 X129.287 Y36.818 E53.21445
G1 X129.566 Y37.135 E53.25939
G1 X129.78 Y37.5 E53.30442
G1 X129.922 Y37.898 E53.3494
G1 X129.99 Y38.447 E53.40828
G1 X129.99 Y68.447 E56.60125
G1 X129.95 Y68.868 E56.64626
G1 X129.832 Y69.274 E56.69126
G1 X129.639 Y69.65 E56.73624
G1 X129.379 Y69.984 E56.78129
G1 X129.062 Y70.263 E56.82624
G1 X128.697 Y70.477 E56.87127
G1 X128.299 Y70.619 E56.91625
G1 X127.75 Y70.687 E56.97512
G1 X92.25 Y70.687 E60.75347
G1 X91.829 Y70.647 E60.79848
G1 X91.423 Y70.529 E60.84348
G1 X91.047 Y70.336 E60.88847
G1 X90.713 Y70.076 E60.93352
G1 X90.434 Y69.759 E60.97846
G1 X90.22 Y69.394 E61.02349
G1 X90.078 Y68.996 E61.06847
G1 X90.01 Y68.447 E61.12735
G1 X90.01 Y38.447 E64.32032
G0 F6000 X90.65 Y38.447
G1 F1200 X90.69 Y38.092 E64.35834
G1 X90.808 Y37.755 E64.39635
G1 X90.997 Y37.452 E64.43435
G1 X91.249 Y37.199 E64.47236
G1 X91.551 Y37.008 E64.51039
G1 X91.888 Y36.889 E64.54843
G1 X92.25 Y36.847 E64.58722
G1 X127.75 Y36.847 E68.36557
G1 X128.105 Y36.887 E68.40359
G1 X128.442 Y37.005 E68.44159
G1 X128.745 Y37.194 E68.4796
G1 X128.998 Y37.446 E68.51761
G1 X129.189 Y37.748 E68.55564
G1 X129.308 Y38.085 E68.59368
G1 X129.35 Y38.447 E68.63247
G1 X129.35 Y68.447 E71.82544
G1 X129.31 Y68.802 E71.86346
G1 X129.192 Y69.139 E71.90146
G1 X129.003 Y69.442 E71.93947
G1 X128.751 Y69.695 E71.97748
G1 X128.449 Y69.886 E72.01551
G1 X128.112 Y70.005 E72.05355
G1 X127.75 Y70.047 E72.09234
G1 X92.25 Y70.047 E75.87069
G1 X91.895 Y70.007 E75.90871
G1 X91.558 Y69.889 E75.94671
G1 X91.255 Y69.7 E75.98472
G1 X91.002 Y69.448 E76.02273
G1 X90.811 Y69.146 E76.06076
G1 X90.692 Y68.809 E76.0988
G1 X90.65 Y68.447 E76.13758
G1 X90.65 Y38.447 E79.33056
G0 F6000 X91.29 Y38.447
G1 F1200 X91.33 Y38.173 E79.36003
G1 X91.446 Y37.923 E79.38936
G1 X91.629 Y37.715 E79.41885
G1 X91.863 Y37.569 E79.4482
G1 X92.25 Y37.487 E79.49031
G1 X127.75 Y37.487 E83.26866
G1 X128.024 Y37.527 E83.29813
G1 X128.274 Y37.643 E83.32746
G1 X128.482 Y37.826 E83.35695
G1 X128.628 Y38.06 E83.3863
G1 X128.71 Y38.447 E83.42841
G1 X128.71 Y68.447 E86.62138
G1 X128.67 Y68.721 E86.65085
G1 X128.554 Y68.971 E86.68018
G1 X128.371 Y69.179 E86.70967
G1 X128.137 Y69.325 E86.73903
G1 X127.75 Y69.407 E86.78113
G1 X92.25 Y69.407 E90.55948
G1 X91.976 Y69.367 E90.58895
G1 X91.726 Y69.251 E90.61829
G1 X91.518 Y69.068 E90.64777
G1 X91.372 Y68.834 E90.67713
G1 X91.29 Y68.447 E90.71923
G1 X91.29 Y38.447 E93.9122
G0 F6000 X91.93 Y38.447
G1 F1200 X91.969 Y38.293 E93.92911
G1 X92.078 Y38.177 E93.94605
G1 X92.25 Y38.127 E93.96512
G1 X127.75 Y38.127 E97.74347
G1 X127.904 Y38.166 E97.76038
G1 X128.02 Y38.275 E97.77732
G1 X128.07 Y38.447 E97.79638
G1 X128.07 Y68.447 E100.98936
G1 X128.031 Y68.601 E101.00626
G1 X127.922 Y68.717 E101.02321
G1 X127.75 Y68.767 E101.04227
G1 X92.25 Y68.767 E104.82062
G1 X92.096 Y68.728 E104.83753
G1 X91.98 Y68.619 E104.85447
G1 X91.93 Y68.447 E104.87354
G1 X91.93 Y38.447 E108.06651
G1 F1500 E101.56651
;MESH:z_stabilazer-Body.stl
G0 F6000 X107.758 Y51.118
G0 X108.046 Y54.403
G0 X108.413 Y55.502
G0 X109.055 Y56.509
G0 X109.758 Y57.199
G0 X110.56 Y57.718
G0 X111.28 Y58.001
G0 X112.417 Y58.294
G1 F1500 E108.06651
G0 F6000 X112.424 Y58.005
;TYPE:WALL-OUTER
G1 F1200 X111.984 Y57.952 E108.11368
G1 X111.53 Y57.852 E108.16316
G1 X111.093 Y57.706 E108.21219
G1 X110.679 Y57.522 E108.26041
G1 X110.284 Y57.294 E108.30895
G1 X109.913 Y57.028 E108.35754
G1 X109.57 Y56.729 E108.40597
G1 X109.242 Y56.378 E108.4571
G1 X108.982 Y56.033 E108.50308
G1 X108.96 Y55.999 E108.50739
G1 X108.631 Y55.424 E108.5779
G1 X108.613 Y55.386 E108.58237
G1 X108.374 Y54.771 E108.6526
G1 X108.228 Y54.112 E108.72444
G1 X108.186 Y53.692 E108.76936
G1 X108.185 Y53.235 E108.818
G1 X108.228 Y52.781 E108.86654
G1 X108.235 Y52.739 E108.87107
G1 X108.393 Y52.069 E108.94434
G1 X108.632 Y51.465 E109.01347
G1 X108.653 Y51.422 E109.01857
G1 X108.97 Y50.879 E109.08549
G1 X109.239 Y50.522 E109.13306
G1 X109.546 Y50.186 E109.1815
G1 X109.908 Y49.868 E109.23278
G1 X109.939 Y49.844 E109.23696
G1 X110.464 Y49.489 E109.30441
G1 X110.506 Y49.465 E109.30956
G1 X111.08 Y49.193 E109.37716
G1 X111.497 Y49.05 E109.42408
G1 X111.966 Y48.944 E109.47526
G1 X112.005 Y48.938 E109.47946
G1 X112.613 Y48.879 E109.54447
G1 X113.075 Y48.888 E109.59365
G1 X113.516 Y48.941 E109.64093
G1 X113.97 Y49.041 E109.69041
G1 X114.011 Y49.053 E109.69495
G1 X114.609 Y49.272 E109.76273
G1 X114.651 Y49.291 E109.76764
G1 X115.208 Y49.594 E109.83513
G1 X115.587 Y49.864 E109.88465
G1 X115.925 Y50.157 E109.93226
G1 X116.256 Y50.514 E109.98408
G1 X116.518 Y50.86 E110.03027
G1 X116.745 Y51.228 E110.07629
G1 X116.954 Y51.656 E110.12698
G1 X117.12 Y52.106 E110.17803
G1 X117.132 Y52.146 E110.18248
G1 X117.269 Y52.765 E110.24995
G1 X117.314 Y53.201 E110.29661
G1 X117.316 Y53.658 E110.34525
G1 X117.272 Y54.112 E110.39379
G1 X117.184 Y54.557 E110.44207
G1 X117.049 Y54.997 E110.49106
G1 X116.876 Y55.414 E110.53911
G1 X116.857 Y55.451 E110.54353
G1 X116.527 Y56.021 E110.61363
G1 X116.26 Y56.373 E110.66066
G1 X115.946 Y56.713 E110.70991
G1 X115.586 Y57.031 E110.76104
G1 X115.223 Y57.291 E110.80856
G1 X114.85 Y57.507 E110.85444
G1 X114.411 Y57.703 E110.90561
G1 X114.375 Y57.717 E110.90972
G1 X113.755 Y57.906 E110.9787
G1 X113.33 Y57.98 E111.02462
G1 X112.88 Y58.015 E111.07266
G1 X112.424 Y58.005 E111.1212
G0 F6000 X112.409 Y58.645
;TYPE:WALL-INNER
G1 F1200 X111.904 Y58.587 E111.1753
G1 X111.39 Y58.476 E111.23127
G1 X110.887 Y58.312 E111.28758
G1 X110.417 Y58.106 E111.3422
G1 X109.962 Y57.848 E111.39787
G1 X109.538 Y57.546 E111.45327
G1 X109.148 Y57.211 E111.50799
G1 X108.772 Y56.812 E111.56634
G1 X108.47 Y56.417 E111.61926
G1 X108.404 Y56.317 E111.63202
G1 X108.071 Y55.734 E111.70347
G1 X108.017 Y55.619 E111.717
G1 X107.786 Y55.026 E111.78473
G1 X107.743 Y54.884 E111.80052
G1 X107.598 Y54.222 E111.87265
G1 X107.549 Y53.755 E111.92263
G1 X107.545 Y53.235 E111.97797
G1 X107.591 Y52.717 E112.03332
G1 X107.612 Y52.593 E112.04671
G1 X107.764 Y51.946 E112.11744
G1 X107.806 Y51.811 E112.13249
G1 X108.037 Y51.229 E112.19914
G1 X108.1 Y51.1 E112.21442
G1 X108.417 Y50.556 E112.28143
G1 X108.729 Y50.135 E112.3372
G1 X109.076 Y49.752 E112.39221
G1 X109.487 Y49.386 E112.45078
G1 X109.581 Y49.314 E112.46338
G1 X110.106 Y48.959 E112.53083
G1 X110.232 Y48.887 E112.54628
G1 X110.806 Y48.615 E112.61388
G1 X111.292 Y48.444 E112.66872
G1 X111.827 Y48.319 E112.72719
G1 X111.943 Y48.301 E112.73969
G1 X112.551 Y48.242 E112.8047
G1 X113.09 Y48.248 E112.86207
G1 X113.595 Y48.306 E112.91617
G1 X114.11 Y48.417 E112.97225
G1 X114.231 Y48.452 E112.98565
G1 X114.829 Y48.671 E113.05343
G1 X114.957 Y48.729 E113.06839
G1 X115.514 Y49.032 E113.13588
G1 X115.961 Y49.345 E113.19396
G1 X116.346 Y49.675 E113.24792
G1 X116.726 Y50.08 E113.30703
G1 X117.03 Y50.476 E113.36017
G1 X117.291 Y50.894 E113.41262
G1 X117.53 Y51.377 E113.46997
G1 X117.721 Y51.887 E113.52794
G1 X117.757 Y52.008 E113.54137
G1 X117.894 Y52.627 E113.60885
G1 X117.951 Y53.139 E113.66368
G1 X117.956 Y53.658 E113.71892
G1 X117.909 Y54.176 E113.77428
G1 X117.812 Y54.683 E113.82922
G1 X117.66 Y55.187 E113.88525
G1 X117.466 Y55.662 E113.93985
G1 X117.411 Y55.771 E113.95285
G1 X117.081 Y56.342 E114.02304
G1 X116.767 Y56.763 E114.07894
G1 X116.423 Y57.141 E114.13334
G1 X116.035 Y57.49 E114.18888
G1 X115.596 Y57.811 E114.24676
G1 X115.169 Y58.062 E114.29948
G1 X114.67 Y58.288 E114.35778
G1 X114.561 Y58.329 E114.37018
G1 X113.941 Y58.518 E114.43916
G1 X113.436 Y58.611 E114.49382
G1 X112.927 Y58.653 E114.54817
G1 X112.409 Y58.645 E114.60331
G1 F1500 E108.10331
G0 F6000 X111.324 Y58.77
G0 X111.324 Y68.017
G0 X92.83 Y67.867
G1 F1500 E114.60331
G0 F6000 X92.57 Y68.127
;TYPE:WALL-OUTER
G1 F1200 X127.43 Y68.127 E118.31355
G1 X127.43 Y45.473 E120.72467
G1 X127.43 Y38.767 E121.4384
G1 X92.571 Y38.768 E125.14853
G1 X92.57 Y68.127 E128.27328
G0 F6000 X93.21 Y67.487
;TYPE:WALL-INNER
G1 F1200 X126.79 Y67.487 E131.84728
G1 X126.79 Y45.473 E134.19029
G1 X126.79 Y39.407 E134.8359
G1 X93.211 Y39.408 E138.4098
G1 X93.21 Y67.487 E141.39832
G0 F6000 X93.81 Y66.887
;TYPE:SKIN
G1 F1200 X126.19 Y66.887 E144.8446
G1 X126.19 Y45.473 E147.12374
G1 X126.19 Y40.007 E147.7055
G1 X93.812 Y40.009 E151.15157
G1 X93.81 Y66.887 E154.01226
G1 F1500 E147.51226
G0 F6000 X93.43 Y66.887
G0 X93.502 Y67.195
G0 X104.101 Y67.207
G0 X111.324 Y58.77
G0 X112.283 Y58.857
G1 F1500 E154.01226
G0 F6000 X112.236 Y59.234
G1 F1200 X111.711 Y59.164 E154.06863
G1 X111.679 Y59.158 E154.0721
G1 X111.092 Y59.015 E154.1364
G1 X110.583 Y58.837 E154.19379
G1 X110.056 Y58.595 E154.25551
G1 X110.025 Y58.579 E154.25923
G1 X109.526 Y58.279 E154.3212
G1 X109.092 Y57.958 E154.37865
G1 X108.653 Y57.564 E154.44143
G1 X108.629 Y57.541 E154.44497
G1 X108.246 Y57.118 E154.5057
G1 X108.224 Y57.091 E154.50941
G1 X107.899 Y56.641 E154.56849
G1 X107.553 Y56.038 E154.64248
G1 X107.456 Y55.832 E154.66672
G1 X107.194 Y55.151 E154.74438
G1 X107.18 Y55.107 E154.74929
G1 X107.015 Y54.371 E154.82957
G1 X106.991 Y54.205 E154.84742
G1 X106.945 Y53.66 E154.90563
G1 X106.951 Y53.108 E154.96439
G1 X106.953 Y53.075 E154.96791
G1 X107.019 Y52.504 E155.02908
G1 X107.025 Y52.468 E155.03297
G1 X107.186 Y51.782 E155.10796
G1 X107.25 Y51.589 E155.12961
G1 X107.486 Y50.99 E155.19813
G1 X107.563 Y50.829 E155.21712
G1 X107.907 Y50.24 E155.28972
G1 X108.005 Y50.092 E155.30861
G1 X108.33 Y49.674 E155.36497
G1 X108.738 Y49.247 E155.42782
G1 X108.761 Y49.225 E155.43121
G1 X109.245 Y48.815 E155.49872
G1 X109.768 Y48.462 E155.56588
G1 X109.977 Y48.343 E155.59148
G1 X110.564 Y48.066 E155.66056
G1 X110.737 Y47.997 E155.68038
G1 X111.261 Y47.83 E155.73892
G1 X111.778 Y47.717 E155.79524
G1 X112.491 Y47.644 E155.87153
G1 X112.686 Y47.638 E155.89229
G1 X113.261 Y47.659 E155.95353
G1 X113.776 Y47.725 E156.00879
G1 X113.812 Y47.732 E156.01269
G1 X114.404 Y47.877 E156.07756
G1 X114.438 Y47.887 E156.08134
G1 X115.055 Y48.116 E156.15138
G1 X115.244 Y48.201 E156.17344
G1 X115.817 Y48.514 E156.24293
G1 X115.973 Y48.614 E156.26265
G1 X116.429 Y48.951 E156.323
G1 X116.854 Y49.333 E156.38382
G1 X117.251 Y49.772 E156.44682
G1 X117.272 Y49.797 E156.45029
G1 X117.578 Y50.215 E156.50543
G1 X117.863 Y50.689 E156.56429
G1 X118.12 Y51.235 E156.62852
G1 X118.133 Y51.265 E156.632
G1 X118.334 Y51.843 E156.69713
G1 X118.344 Y51.879 E156.70111
G1 X118.487 Y52.53 E156.77205
G1 X118.549 Y53.076 E156.83053
G1 X118.556 Y53.657 E156.89238
G1 X118.555 Y53.687 E156.89557
G1 X118.495 Y54.337 E156.96505
G1 X118.369 Y54.932 E157.02978
G1 X118.36 Y54.965 E157.03342
G1 X118.192 Y55.481 E157.09117
G1 X117.946 Y56.042 E157.15637
G1 X117.93 Y56.074 E157.16018
G1 X117.591 Y56.659 E157.23214
G1 X117.485 Y56.816 E157.2523
G1 X117.15 Y57.237 E157.30957
G1 X116.747 Y57.662 E157.3719
G1 X116.33 Y58.022 E157.43054
G1 X115.838 Y58.368 E157.49455
G1 X115.81 Y58.386 E157.4981
G1 X115.316 Y58.658 E157.55812
G1 X114.775 Y58.889 E157.62073
G1 X114.12 Y59.092 E157.69371
G1 X113.923 Y59.139 E157.71527
G1 X113.386 Y59.221 E157.77308
