;FLAVOR:Marlin
;TIME:7005
;Filament used: 4.66442m
;Layer height: 0.2
;MINX:53.832
;MINY:39.711
;MINZ:0.4
;MAXX:134.414
;MAXY:78.117
;MAXZ:23
;Generated with Cura_SteamEngine 5.0.0
M140 S70
M105
M190 S70
M104 S215
M105
M109 S215
M82 ;absolute extrusion mode
; Ender 3 Custom Start G-code
G92 E0 ; Reset Extruder
G28 ; Home all axes
G1 Z2.0 F3000 ; Move Z Axis up little to prevent scratching of Heat Bed
G1 X0.1 Y20 Z0.3 F5000.0 ; Move to start position
G1 X0.1 Y200.0 Z0.3 F1500.0 E15 ; Draw the first line
G1 X0.4 Y200.0 Z0.3 F5000.0 ; Move to side a little
G1 X0.4 Y20 Z0.3 F1500.0 E30 ; Draw the second line
G92 E0 ; Reset Extruder
G1 Z2.0 F3000 ; Move Z Axis up little to prevent scratching of Heat Bed
G1 X5 Y20 Z0.3 F5000.0 ; Move over to prevent blob squish
G92 E0
G92 E0
G1 F1500 E-6.5
;LAYER_COUNT:114
;LAYER:0
M107 P2
G0 F6000 X57.999 Y46.521 Z0.4
G0 X53.834 Y57.943
;TYPE:SKIRT
G1 F1500 E0
G1 F1200 X53.865 Y56.994 E0.10106
G1 X53.931 Y56.184 E0.18755
G1 X54.043 Y55.315 E0.28081
G1 X54.199 Y54.44 E0.37541
G1 X54.401 Y53.561 E0.4714
G1 X54.639 Y52.726 E0.56381
G1 X54.929 Y51.864 E0.66061
G1 X55.28 Y50.977 E0.76214
G1 X55.606 Y50.258 E0.84616
G1 X56.012 Y49.458 E0.94164
G1 X56.452 Y48.691 E1.03575
G1 X56.946 Y47.921 E1.13312
G1 X57.49 Y47.165 E1.23225
G1 X57.999 Y46.521 E1.31962
G1 X58.573 Y45.864 E1.41247
G1 X59.191 Y45.219 E1.50755
G1 X59.842 Y44.606 E1.60272
G1 X60.517 Y44.032 E1.69702
G1 X61.216 Y43.494 E1.7909
G1 X61.942 Y42.988 E1.88509
G1 X62.697 Y42.516 E1.97986
G1 X63.464 Y42.088 E2.07334
G1 X64.261 Y41.691 E2.16811
G1 X65.069 Y41.338 E2.26195
G1 X65.91 Y41.018 E2.35772
G1 X66.758 Y40.745 E2.45254
G1 X67.594 Y40.521 E2.54466
G1 X68.473 Y40.327 E2.64046
G1 X69.341 Y40.183 E2.73411
G1 X70.219 Y40.079 E2.82821
G1 X71.112 Y40.017 E2.92348
G1 X71.892 Y40 E3.00652
G1 X93.292 Y39.999 E5.28417
G1 X93.709 Y40.028 E5.32866
G1 X94.25 Y39.848 E5.38935
G1 X94.927 Y39.733 E5.46243
G1 X95.356 Y39.711 E5.50815
G1 X116.542 Y39.715 E7.76303
G1 X117.336 Y39.741 E7.84758
G1 X118.223 Y39.81 E7.94227
G1 X119.094 Y39.921 E8.03573
G1 X119.768 Y40.036 E8.1085
G1 X120.009 Y40.085 E8.13467
G1 X120.918 Y40.3 E8.23409
G1 X121.683 Y40.518 E8.31875
G1 X122.552 Y40.809 E8.41629
G1 X123.437 Y41.16 E8.51762
G1 X124.156 Y41.486 E8.60164
G1 X124.959 Y41.894 E8.69751
G1 X125.744 Y42.346 E8.79392
G1 X126.548 Y42.867 E8.89589
G1 X127.25 Y43.371 E8.98786
G1 X127.883 Y43.871 E9.07372
G1 X128.564 Y44.463 E9.16976
G1 X129.189 Y45.066 E9.26219
G1 X129.81 Y45.724 E9.35849
G1 X130.379 Y46.393 E9.45196
G1 X130.919 Y47.093 E9.54605
G1 X131.429 Y47.824 E9.64092
G1 X131.9 Y48.579 E9.73563
G1 X132.33 Y49.35 E9.82959
G1 X132.725 Y50.147 E9.92426
G1 X133.071 Y50.94 E10.01635
G1 X133.319 Y51.576 E10.089
G1 X133.633 Y52.526 E10.19549
G1 X133.848 Y53.291 E10.28007
G1 X134.062 Y54.236 E10.3832
G1 X134.202 Y55.015 E10.46743
G1 X134.316 Y55.898 E10.56219
G1 X134.387 Y56.782 E10.65658
G1 X134.414 Y57.667 E10.75082
G1 X134.412 Y59.951 E10.99391
G1 X134.386 Y60.76 E11.08006
G1 X134.317 Y61.632 E11.17316
G1 X134.205 Y62.517 E11.2681
G1 X134.043 Y63.42 E11.36575
G1 X133.827 Y64.337 E11.46602
G1 X133.609 Y65.1 E11.55047
G1 X133.322 Y65.959 E11.64687
G1 X132.995 Y66.787 E11.74162
G1 X132.642 Y67.569 E11.83293
G1 X132.233 Y68.376 E11.92923
G1 X131.781 Y69.161 E12.02564
G1 X131.268 Y69.954 E12.12616
G1 X130.798 Y70.611 E12.21213
G1 X130.261 Y71.293 E12.30452
G1 X129.667 Y71.978 E12.40102
G1 X129.046 Y72.621 E12.49616
G1 X128.406 Y73.221 E12.58953
G1 X127.735 Y73.794 E12.68345
G1 X127.032 Y74.337 E12.77799
G1 X126.305 Y74.844 E12.87232
G1 X125.55 Y75.316 E12.96709
G1 X124.777 Y75.747 E13.06129
G1 X123.98 Y76.142 E13.15596
G1 X123.178 Y76.491 E13.24905
G1 X122.324 Y76.815 E13.34626
G1 X121.426 Y77.103 E13.44664
G1 X120.627 Y77.317 E13.53467
G1 X119.709 Y77.515 E13.63462
G1 X118.901 Y77.65 E13.72181
G1 X118.029 Y77.752 E13.81526
G1 X117.141 Y77.814 E13.91
G1 X116.355 Y77.832 E13.99368
G1 X94.955 Y77.833 E16.27133
G1 X94.513 Y77.802 E16.31849
G1 X94.204 Y77.923 E16.35381
G1 X93.643 Y78.057 E16.4152
G1 X92.96 Y78.114 E16.48814
G1 X71.776 Y78.117 E18.74281
G1 X70.828 Y78.086 E18.84376
G1 X70.022 Y78.021 E18.92982
G1 X69.14 Y77.908 E19.02446
G1 X68.273 Y77.752 E19.11822
G1 X67.395 Y77.55 E19.21411
G1 X66.558 Y77.312 E19.30673
G1 X65.695 Y77.022 E19.40362
G1 X64.812 Y76.672 E19.50472
G1 X64.085 Y76.343 E19.58965
G1 X63.288 Y75.937 E19.68485
G1 X62.524 Y75.499 E19.77858
G1 X61.754 Y75.005 E19.87595
G1 X60.997 Y74.46 E19.97522
G1 X60.367 Y73.963 E20.06063
G1 X59.679 Y73.365 E20.15765
G1 X59.058 Y72.765 E20.24955
G1 X58.438 Y72.109 E20.34562
G1 X57.867 Y71.438 E20.4394
G1 X57.322 Y70.731 E20.53441
G1 X56.821 Y70.01 E20.62785
G1 X56.346 Y69.251 E20.72315
G1 X55.92 Y68.487 E20.81625
G1 X55.522 Y67.687 E20.91135
G1 X55.168 Y66.878 E21.00534
G1 X54.852 Y66.043 E21.10036
G1 X54.579 Y65.198 E21.19487
G1 X54.351 Y64.354 E21.28792
G1 X54.158 Y63.472 E21.38402
G1 X54.017 Y62.622 E21.47572
G1 X53.909 Y61.727 E21.57167
G1 X53.849 Y60.84 E21.66629
G1 X53.832 Y60.06 E21.74933
G1 X53.834 Y57.943 E21.97464
G0 F6000 X54.472 Y60.06
G1 F1200 X54.473 Y57.961 E22.19805
G1 X54.503 Y57.042 E22.29591
G1 X54.566 Y56.263 E22.37909
G1 X54.674 Y55.424 E22.46912
G1 X54.824 Y54.58 E22.56036
G1 X55.018 Y53.733 E22.65284
G1 X55.247 Y52.926 E22.74213
G1 X55.525 Y52.097 E22.83519
G1 X55.864 Y51.238 E22.93347
G1 X56.179 Y50.544 E23.01459
G1 X56.569 Y49.773 E23.10655
G1 X56.993 Y49.033 E23.19732
G1 X57.467 Y48.293 E23.29086
G1 X57.995 Y47.559 E23.38709
G1 X58.483 Y46.94 E23.47098
G1 X59.038 Y46.304 E23.56082
G1 X59.633 Y45.682 E23.65244
G1 X60.26 Y45.091 E23.74414
G1 X60.91 Y44.537 E23.83504
G1 X61.584 Y44.017 E23.92564
G1 X62.285 Y43.529 E24.01655
G1 X63.012 Y43.073 E24.10789
G1 X63.752 Y42.659 E24.19814
G1 X64.521 Y42.276 E24.28957
G1 X65.3 Y41.935 E24.38008
G1 X66.109 Y41.627 E24.47221
G1 X66.927 Y41.363 E24.5637
G1 X67.736 Y41.145 E24.65287
G1 X68.582 Y40.958 E24.74509
G1 X69.42 Y40.818 E24.83551
G1 X70.267 Y40.717 E24.9263
G1 X71.127 Y40.657 E25.01806
G1 X71.892 Y40.64 E25.0995
G1 X93.292 Y40.639 E27.37715
G1 X93.832 Y40.681 E27.4348
G1 X93.986 Y40.606 E27.45303
G1 X94.492 Y40.448 E27.50945
G1 X95.051 Y40.364 E27.56961
G1 X95.356 Y40.351 E27.6021
G1 X116.524 Y40.354 E29.85506
G1 X117.29 Y40.379 E29.93664
G1 X118.145 Y40.445 E30.02791
G1 X118.986 Y40.552 E30.11814
G1 X119.864 Y40.708 E30.21305
G1 X120.746 Y40.916 E30.3095
G1 X121.484 Y41.126 E30.39116
G1 X122.319 Y41.406 E30.4849
G1 X123.176 Y41.744 E30.58295
G1 X123.87 Y42.059 E30.66406
G1 X124.643 Y42.45 E30.75626
G1 X125.399 Y42.885 E30.84909
G1 X126.177 Y43.388 E30.9477
G1 X126.856 Y43.876 E31.03669
G1 X127.466 Y44.357 E31.11937
G1 X128.122 Y44.926 E31.2118
G1 X128.727 Y45.509 E31.30122
G1 X129.325 Y46.141 E31.39382
G1 X129.875 Y46.787 E31.48412
G1 X130.396 Y47.462 E31.57488
G1 X130.888 Y48.166 E31.66629
G1 X131.343 Y48.894 E31.75766
G1 X131.758 Y49.638 E31.84833
G1 X132.139 Y50.406 E31.93958
G1 X132.474 Y51.172 E32.02856
G1 X132.792 Y52.005 E32.12346
G1 X133.069 Y52.872 E32.22033
G1 X133.275 Y53.637 E32.30465
G1 X133.466 Y54.524 E32.40122
G1 X133.597 Y55.298 E32.48477
G1 X133.698 Y56.15 E32.57609
G1 X133.757 Y57 E32.66677
G1 X133.775 Y57.774 E32.74918
G1 X133.772 Y59.934 E32.97907
G1 X133.747 Y60.713 E33.06202
G1 X133.682 Y61.556 E33.15201
G1 X133.574 Y62.408 E33.24342
G1 X133.419 Y63.276 E33.33726
G1 X133.21 Y64.165 E33.43446
G1 X133.001 Y64.901 E33.51589
G1 X132.725 Y65.728 E33.60868
G1 X132.411 Y66.526 E33.69996
G1 X132.069 Y67.283 E33.78837
G1 X131.677 Y68.06 E33.88099
G1 X131.242 Y68.816 E33.97382
G1 X130.746 Y69.585 E34.07122
G1 X130.294 Y70.217 E34.15392
G1 X129.774 Y70.877 E34.24335
G1 X129.204 Y71.536 E34.33608
G1 X128.606 Y72.156 E34.42776
G1 X127.988 Y72.736 E34.51797
G1 X127.341 Y73.29 E34.60862
G1 X126.663 Y73.814 E34.69983
G1 X125.962 Y74.303 E34.79079
G1 X125.235 Y74.759 E34.88213
G1 X124.489 Y75.175 E34.97304
G1 X123.721 Y75.556 E35.06429
G1 X122.947 Y75.895 E35.15422
G1 X122.126 Y76.207 E35.2477
G1 X121.256 Y76.486 E35.34494
G1 X120.49 Y76.692 E35.42936
G1 X119.6 Y76.884 E35.52627
G1 X118.823 Y77.015 E35.61013
G1 X117.981 Y77.114 E35.70037
G1 X117.125 Y77.174 E35.7917
G1 X116.355 Y77.192 E35.87367
G1 X94.955 Y77.193 E38.15132
G1 X94.422 Y77.152 E38.20822
G1 X93.972 Y77.325 E38.25953
G1 X93.454 Y77.439 E38.31598
G1 X92.96 Y77.474 E38.36869
G1 X71.794 Y77.478 E40.62144
G1 X70.876 Y77.448 E40.7192
G1 X70.1 Y77.386 E40.80205
G1 X69.25 Y77.277 E40.89326
G1 X68.413 Y77.127 E40.98377
G1 X67.567 Y76.934 E41.07612
G1 X66.758 Y76.704 E41.16564
G1 X65.928 Y76.425 E41.25883
G1 X65.073 Y76.087 E41.35669
G1 X64.372 Y75.77 E41.43857
G1 X63.604 Y75.381 E41.5302
G1 X62.866 Y74.958 E41.62073
G1 X62.126 Y74.484 E41.71426
G1 X61.391 Y73.955 E41.81065
G1 X60.783 Y73.477 E41.89296
G1 X60.122 Y72.903 E41.98614
G1 X59.52 Y72.322 E42.07518
G1 X58.923 Y71.691 E42.16763
G1 X58.371 Y71.044 E42.25815
G1 X57.846 Y70.363 E42.34967
G1 X57.362 Y69.667 E42.4399
G1 X56.903 Y68.936 E42.53177
G1 X56.491 Y68.199 E42.62163
G1 X56.107 Y67.428 E42.71331
G1 X55.765 Y66.647 E42.80405
G1 X55.46 Y65.843 E42.89557
G1 X55.196 Y65.029 E42.98665
G1 X54.976 Y64.213 E43.0766
G1 X54.789 Y63.364 E43.16913
G1 X54.652 Y62.542 E43.25782
G1 X54.548 Y61.68 E43.35023
G1 X54.489 Y60.825 E43.44145
G1 X54.472 Y60.06 E43.52289
G0 F6000 X55.112 Y60.06
G1 F1200 X55.113 Y57.979 E43.74438
G1 X55.141 Y57.09 E43.83904
G1 X55.201 Y56.342 E43.91891
G1 X55.305 Y55.533 E44.00572
G1 X55.448 Y54.719 E44.09368
G1 X55.634 Y53.905 E44.18255
G1 X55.855 Y53.126 E44.26874
G1 X56.121 Y52.33 E44.35806
G1 X56.449 Y51.5 E44.45305
G1 X56.751 Y50.83 E44.53127
G1 X57.126 Y50.089 E44.61966
G1 X57.534 Y49.374 E44.70727
G1 X57.988 Y48.664 E44.79697
G1 X58.5 Y47.952 E44.89031
G1 X58.967 Y47.358 E44.97073
G1 X59.502 Y46.744 E45.0574
G1 X60.075 Y46.146 E45.14555
G1 X60.677 Y45.576 E45.23379
G1 X61.303 Y45.042 E45.32136
G1 X61.953 Y44.54 E45.40878
G1 X62.627 Y44.069 E45.49629
G1 X63.327 Y43.63 E45.58423
G1 X64.041 Y43.23 E45.67134
G1 X64.78 Y42.861 E45.75925
G1 X65.532 Y42.531 E45.84666
G1 X66.309 Y42.235 E45.93515
G1 X67.096 Y41.98 E46.0232
G1 X67.877 Y41.769 E46.10931
G1 X68.691 Y41.589 E46.19803
G1 X69.498 Y41.453 E46.28514
G1 X70.315 Y41.355 E46.37272
G1 X71.142 Y41.297 E46.46095
G1 X71.892 Y41.28 E46.5408
G1 X93.292 Y41.279 E48.81845
G1 X93.77 Y41.319 E48.8695
G1 X93.909 Y41.355 E48.88478
G1 X94.265 Y41.184 E48.92682
G1 X94.726 Y41.052 E48.97786
G1 X95.107 Y41.002 E49.01875
G1 X95.356 Y40.991 E49.04528
G1 X116.506 Y40.994 E51.29633
G1 X117.244 Y41.017 E51.37491
G1 X118.067 Y41.08 E51.46276
G1 X118.878 Y41.183 E51.54977
G1 X119.72 Y41.332 E51.64078
G1 X120.574 Y41.533 E51.73416
G1 X121.285 Y41.734 E51.8128
G1 X122.086 Y42.002 E51.9027
G1 X122.914 Y42.329 E51.99745
G1 X123.584 Y42.631 E52.07566
G1 X124.328 Y43.007 E52.16439
G1 X125.054 Y43.424 E52.2535
G1 X125.806 Y43.909 E52.34874
G1 X126.462 Y44.38 E52.43469
G1 X127.049 Y44.842 E52.51419
G1 X127.68 Y45.389 E52.60307
G1 X128.264 Y45.951 E52.68934
G1 X128.84 Y46.558 E52.7784
G1 X129.37 Y47.181 E52.86545
G1 X129.873 Y47.831 E52.95293
G1 X130.347 Y48.508 E53.04089
G1 X130.786 Y49.208 E53.12883
G1 X131.186 Y49.925 E53.21622
G1 X131.554 Y50.664 E53.30408
G1 X131.878 Y51.405 E53.39016
G1 X132.183 Y52.201 E53.48089
G1 X132.452 Y53.041 E53.57476
G1 X132.65 Y53.775 E53.65567
G1 X132.836 Y54.634 E53.74922
G1 X132.962 Y55.377 E53.82943
G1 X133.06 Y56.197 E53.91732
G1 X133.117 Y57.016 E54.0047
G1 X133.135 Y57.774 E54.0854
G1 X133.132 Y59.917 E54.31349
G1 X133.109 Y60.666 E54.39324
G1 X133.046 Y61.479 E54.48003
G1 X132.943 Y62.299 E54.56799
G1 X132.795 Y63.132 E54.65804
G1 X132.594 Y63.993 E54.75214
G1 X132.393 Y64.702 E54.83057
G1 X132.128 Y65.496 E54.91966
G1 X131.826 Y66.265 E55.0076
G1 X131.497 Y66.998 E55.09311
G1 X131.12 Y67.745 E55.18216
G1 X130.703 Y68.471 E55.27127
G1 X130.223 Y69.215 E55.36551
G1 X129.789 Y69.823 E55.44502
G1 X129.288 Y70.461 E55.53135
G1 X128.74 Y71.094 E55.62046
G1 X128.166 Y71.692 E55.70869
G1 X127.57 Y72.252 E55.79573
G1 X126.946 Y72.786 E55.88314
G1 X126.295 Y73.291 E55.97083
G1 X125.62 Y73.762 E56.05843
G1 X124.919 Y74.202 E56.14652
G1 X124.202 Y74.603 E56.23396
G1 X123.463 Y74.971 E56.32182
G1 X122.716 Y75.298 E56.40861
G1 X121.928 Y75.598 E56.49836
G1 X121.086 Y75.869 E56.5925
G1 X120.352 Y76.067 E56.67341
G1 X119.49 Y76.253 E56.76727
G1 X118.744 Y76.379 E56.84779
G1 X117.933 Y76.476 E56.93472
G1 X117.109 Y76.534 E57.02264
G1 X116.355 Y76.552 E57.10291
G1 X94.955 Y76.553 E59.38057
G1 X94.477 Y76.513 E59.43162
G1 X94.351 Y76.481 E59.44546
G1 X93.744 Y76.725 E59.51509
G1 X93.273 Y76.817 E59.56616
G1 X92.96 Y76.834 E59.59952
G1 X71.812 Y76.838 E61.85036
G1 X70.924 Y76.81 E61.94492
G1 X70.178 Y76.751 E62.02456
G1 X69.36 Y76.646 E62.11234
G1 X68.552 Y76.503 E62.19967
G1 X67.739 Y76.317 E62.28844
G1 X66.958 Y76.096 E62.37483
G1 X66.161 Y75.829 E62.46429
G1 X65.334 Y75.503 E62.5589
G1 X64.658 Y75.198 E62.63783
G1 X63.919 Y74.824 E62.72598
G1 X63.207 Y74.417 E62.81327
G1 X62.497 Y73.963 E62.90297
G1 X61.785 Y73.451 E62.9963
G1 X61.2 Y72.991 E63.07551
G1 X60.564 Y72.44 E63.16507
G1 X59.983 Y71.88 E63.25096
G1 X59.408 Y71.274 E63.33987
G1 X58.876 Y70.65 E63.42714
G1 X58.369 Y69.996 E63.51522
G1 X57.902 Y69.325 E63.60223
G1 X57.46 Y68.622 E63.69061
G1 X57.062 Y67.91 E63.77742
G1 X56.692 Y67.169 E63.86558
G1 X56.362 Y66.417 E63.95298
G1 X56.067 Y65.643 E64.04114
G1 X55.813 Y64.859 E64.12885
G1 X55.6 Y64.072 E64.21563
G1 X55.42 Y63.257 E64.30446
G1 X55.287 Y62.461 E64.39036
G1 X55.186 Y61.633 E64.47914
G1 X55.129 Y60.81 E64.56694
G1 X55.112 Y60.06 E64.64678
G0 F6000 X55.752 Y60.06
G1 F1200 X55.753 Y57.996 E64.86646
G1 X55.779 Y57.139 E64.95771
G1 X55.836 Y56.421 E65.03437
G1 X55.935 Y55.641 E65.11806
G1 X56.073 Y54.859 E65.20257
G1 X56.251 Y54.077 E65.28793
G1 X56.463 Y53.326 E65.37099
G1 X56.717 Y52.563 E65.45658
G1 X57.033 Y51.761 E65.54832
G1 X57.323 Y51.116 E65.62359
G1 X57.683 Y50.404 E65.70851
G1 X58.075 Y49.716 E65.79278
G1 X58.509 Y49.036 E65.87864
G1 X59.004 Y48.346 E65.96902
G1 X59.452 Y47.777 E66.0461
G1 X59.967 Y47.184 E66.1297
G1 X60.516 Y46.609 E66.21431
G1 X61.095 Y46.061 E66.29916
G1 X61.697 Y45.547 E66.38341
G1 X62.321 Y45.064 E66.46739
G1 X62.97 Y44.61 E66.55169
G1 X63.642 Y44.187 E66.6362
G1 X64.329 Y43.801 E66.72007
G1 X65.039 Y43.446 E66.80456
G1 X65.763 Y43.128 E66.88872
G1 X66.508 Y42.843 E66.97362
G1 X67.265 Y42.597 E67.05834
G1 X68.019 Y42.393 E67.14147
G1 X68.8 Y42.22 E67.22661
G1 X69.577 Y42.088 E67.31049
G1 X70.362 Y41.993 E67.39465
G1 X71.157 Y41.937 E67.47947
G1 X71.892 Y41.92 E67.55772
G1 X93.292 Y41.919 E69.83538
G1 X93.713 Y41.959 E69.88039
G1 X93.992 Y42.04 E69.91131
G1 X94.539 Y41.765 E69.97647
G1 X95.093 Y41.645 E70.0368
G1 X95.356 Y41.631 E70.06483
G1 X116.488 Y41.634 E72.31396
G1 X117.198 Y41.656 E72.38957
G1 X117.99 Y41.716 E72.4741
G1 X118.771 Y41.814 E72.55788
G1 X119.575 Y41.955 E72.64476
G1 X120.402 Y42.149 E72.73516
G1 X121.086 Y42.342 E72.81081
G1 X121.853 Y42.598 E72.89687
G1 X122.653 Y42.913 E72.98838
G1 X123.298 Y43.203 E73.06364
G1 X124.012 Y43.564 E73.1488
G1 X124.709 Y43.963 E73.23428
G1 X125.434 Y44.43 E73.32606
G1 X126.069 Y44.885 E73.40921
G1 X126.632 Y45.328 E73.48545
G1 X127.237 Y45.851 E73.57057
G1 X127.802 Y46.394 E73.65397
G1 X128.354 Y46.975 E73.73927
G1 X128.866 Y47.575 E73.82322
G1 X129.35 Y48.2 E73.90735
G1 X129.806 Y48.85 E73.99186
G1 X130.228 Y49.523 E74.07641
G1 X130.615 Y50.212 E74.16052
G1 X130.969 Y50.923 E74.24505
G1 X131.282 Y51.637 E74.32802
G1 X131.574 Y52.398 E74.41478
G1 X131.835 Y53.211 E74.50566
G1 X132.025 Y53.912 E74.58296
G1 X132.206 Y54.744 E74.67358
G1 X132.327 Y55.456 E74.75045
G1 X132.422 Y56.244 E74.83492
G1 X132.477 Y57.032 E74.91899
G1 X132.495 Y57.773 E74.99788
G1 X132.492 Y59.901 E75.22437
G1 X132.471 Y60.619 E75.30082
G1 X132.411 Y61.402 E75.3844
G1 X132.313 Y62.191 E75.46903
G1 X132.172 Y62.988 E75.55517
G1 X131.977 Y63.821 E75.64622
G1 X131.785 Y64.503 E75.72163
G1 X131.531 Y65.265 E75.80712
G1 X131.242 Y66.005 E75.89167
G1 X130.924 Y66.712 E75.97418
G1 X130.563 Y67.429 E76.05962
G1 X130.164 Y68.126 E76.1451
G1 X129.701 Y68.846 E76.23621
